GilianPonte/MachineUnlearning/results.csv
"","k","sample_size","epsilon","true_marginals","true_joint","bias_biased_marg","bias_unbiased_marg","bias_biased_joint","bias_unbiased_joint"
"1",2,100,0.05,c(0.64, 0.36),c(0.4096, 0.2304, 0.2304, 0.1296),c(`0` = 0.02, `1` = -0.02),c(`0` = -4.66099995833582, `1` = 4.66099995833582),c(0.0252, -0.00520000000000001, -0.00520000000000001, -0.0148),c(-27.6910005582765, 23.0300005999407, 23.0300005999407, -18.3690006416049)
"2",2,100,0.5,c(0.64, 0.36),c(0.4096, 0.2304, 0.2304, 0.1296),c(`0` = 0.085, `1` = -0.085),c(`0` = -0.084564349079048, `1` = 0.0845643490790477),c(0.101575, -0.016575, -0.016575, -0.068425),c(-0.115393495956345, 0.0308291468772966, 0.0308291468772968, 0.0537352022017515)
"3",2,100,1,c(0.64, 0.36),c(0.4096, 0.2304, 0.2304, 0.1296),c(`0` = 0.045, `1` = -0.045),c(`0` = -0.0655755743051719, `1` = 0.0655755743051719),c(0.055575, -0.010575, -0.010575, -0.034425),c(-0.088236891056073, 0.0226613167509012, 0.0226613167509012, 0.0429142575542706)
"4",2,100,3,c(0.64, 0.36),c(0.4096, 0.2304, 0.2304, 0.1296),c(`0` = 0.025, `1` = -0.025),c(`0` = 0.0129489898070112, `1` = -0.0129489898070111),c(0.031375, -0.00637500000000002, -0.00637500000000002, -0.018625),c(0.0164070306159522, -0.00345804080894102, -0.00345804080894102, -0.00949094899807007)
"5",2,100,5,c(0.64, 0.36),c(0.4096, 0.2304, 0.2304, 0.1296),c(`0` = 0.015, `1` = -0.015),c(`0` = 0.0133040862734239, `1` = -0.0133040862734239),c(0.018975, -0.00397500000000001, -0.00397500000000001, -0.011025),c(0.016852231718412, -0.00354814544498799, -0.00354814544498802, -0.00975594082843595)
"6",2,500,0.05,c(0.64, 0.36),c(0.4096, 0.2304, 0.2304, 0.1296),c(`0` = 0.0630000000000001, `1` = -0.063),c(`0` = -2.94064163993215, `1` = 2.94064163993215),c(0.076671, -0.013671, -0.013671, -0.049329),c(-12.411394553616, 9.47075291368392, 9.47075291368392, -6.5301112737518)
"7",2,500,0.5,c(0.64, 0.36),c(0.4096, 0.2304, 0.2304, 0.1296),c(`0` = 0.031, `1` = -0.031),c(`0` = -0.305045709993022, `1` = 0.305045709993022),c(0.0387190000000001, -0.007719, -0.007719, -0.023281),c(-0.483511393976215, 0.178465683983193, 0.178465683983193, 0.126580026009829)
"8",2,500,1,c(0.64, 0.36),c(0.4096, 0.2304, 0.2304, 0.1296),c(`0` = 0.035, `1` = -0.035),c(`0` = -0.0872151084425585, `1` = 0.0872151084425585),c(0.043575, -0.008575, -0.008575, -0.026425),c(-0.119241813947122, 0.0320267055045636, 0.0320267055045636, 0.0551884029379949)
"9",2,500,3,c(0.64, 0.36),c(0.4096, 0.2304, 0.2304, 0.1296),c(`0` = -0.002, `1` = 0.002),c(`0` = -0.0168803778035167, `1` = 0.0168803778035167),c(-0.00256400000000001, 0.000564000000000009, 0.000564000000000009, 0.00143599999999999),c(-0.0218918307432909, 0.0050114529397742, 0.0050114529397742, 0.0118689248637426)
"10",2,500,5,c(0.64, 0.36),c(0.4096, 0.2304, 0.2304, 0.1296),c(`0` = 0, `1` = 0),c(`0` = -0.00189942337376514, `1` = 0.0018994233737652),c(0, 0, 0, 0),c(-0.00243486972757223, 0.000535446353807062, 0.000535446353807062, 0.00136397701995811)
"11",2,1000,0.05,c(0.64, 0.36),c(0.4096, 0.2304, 0.2304, 0.1296),c(`0` = 0.0750000000000001, `1` = -0.075),c(`0` = -2.46054164409857, `1` = 2.46054164409857),c(0.0903750000000001, -0.015375, -0.015375, -0.059625),c(-9.20375848678949, 6.74321684269092, 6.74321684269092, -4.2826751985924)
"12",2,1000,0.5,c(0.64, 0.36),c(0.4096, 0.2304, 0.2304, 0.1296),c(`0` = 0.055, `1` = -0.055),c(`0` = -0.207053994031255, `1` = 0.207053994031256),c(0.0673750000000001, -0.012375, -0.012375, -0.042625),c(-0.307900468804303, 0.100846474773047, 0.100846474773047, 0.106207519258209)
"13",2,1000,1,c(0.64, 0.36),c(0.4096, 0.2304, 0.2304, 0.1296),c(`0` = 0.028, `1` = -0.028),c(`0` = -0.102362782338729, `1` = 0.102362782338729),c(0.035056, -0.00705600000000001, -0.00705600000000001, -0.020944),c(-0.141502500601699, 0.0391397182629701, 0.0391397182629701, 0.0632230640757589)
"14",2,1000,3,c(0.64, 0.36),c(0.4096, 0.2304, 0.2304, 0.1296),c(`0` = 0.014, `1` = -0.014),c(`0` = 0.000796284484203547, `1` = -0.000796284484203547),c(0.017724, -0.00372400000000001, -0.00372400000000001, -0.010276),c(0.00101861007080067, -0.000222325586597155, -0.000222325586597155, -0.00057395889760628)
"15",2,1000,5,c(0.64, 0.36),c(0.4096, 0.2304, 0.2304, 0.1296),c(`0` = 0.00750000000000006, `1` = -0.00750000000000001),c(`0` = 0.00570233144982946, `1` = -0.0057023314498294),c(0.00954375000000007, -0.00204374999999998, -0.00204374999999998, -0.00545625),c(0.00726646767181799, -0.0015641362219885, -0.0015641362219885, -0.00413819522784087)
"16",2,10000,0.05,c(0.64, 0.36),c(0.4096, 0.2304, 0.2304, 0.1296),c(`0` = 0.07195, `1` = -0.07195),c(`0` = -2.58256705970627, `1` = 2.58256705970627),c(0.0869191974999999, -0.0149691975, -0.0149691975, -0.0569808025),c(-9.97533845430396, 7.39277139459771, 7.39277139459771, -4.81020433489146)
"17",2,10000,0.5,c(0.64, 0.36),c(0.4096, 0.2304, 0.2304, 0.1296),c(`0` = 0.05225, `1` = -0.05225),c(`0` = -0.218282211485208, `1` = 0.218282211485208),c(0.0641499375, -0.0118999375, -0.0118999375, -0.0403500625),c(-0.32704835455194, 0.108766143066732, 0.108766143066732, 0.109516068418476)
"18",2,10000,1,c(0.64, 0.36),c(0.4096, 0.2304, 0.2304, 0.1296),c(`0` = 0.0412, `1` = -0.0412),c(`0` = -0.0737985972773789, `1` = 0.0737985972773789),c(0.05103856, -0.00983856, -0.00983856, -0.03136144),c(-0.0999084374751535, 0.0261098401977748, 0.0261098401977748, 0.047688757079604)
"19",2,10000,3,c(0.64, 0.36),c(0.4096, 0.2304, 0.2304, 0.1296),c(`0` = 0.00834999999999997, `1` = -0.00835000000000002),c(`0` = -0.00544578688614772, `1` = 0.00544578688614766),c(0.0106182774999999, -0.00226827750000003, -0.00226827750000003, -0.00608172250000003),c(-0.00700026380907848, 0.00155447692293068, 0.00155447692293068, 0.00389130996321699)
"20",2,10000,5,c(0.64, 0.36),c(0.4096, 0.2304, 0.2304, 0.1296),c(`0` = 0.00224999999999997, `1` = -0.00225000000000003),c(`0` = 0.000381103073313183, `1` = -0.000381103073313238),c(0.00287493749999995, -0.000624937500000033, -0.000624937500000033, -0.00162506250000002),c(0.000487666694288347, -0.000106563620975247, -0.00010656362097522, -0.000274539452338018)
"21",2,1e+05,0.05,c(0.64, 0.36),c(0.4096, 0.2304, 0.2304, 0.1296),c(`0` = 0.06813, `1` = -0.06813),c(`0` = -2.73539889171329, `1` = 2.73539889171329),c(0.0825647031, -0.0144347031, -0.0144347031, -0.0536952969),c(-10.9837176781794, 8.2483187864661, 8.2483187864661, -5.51291989475284)
"22",2,1e+05,0.5,c(0.64, 0.36),c(0.4096, 0.2304, 0.2304, 0.1296),c(`0` = 0.054025, `1` = -0.054025),c(`0` = -0.211034907492202, `1` = 0.211034907492202),c(0.066233299375, -0.012208299375, -0.012208299375, -0.041816700625),c(-0.314660413770262, 0.103625506278059, 0.103625506278059, 0.107409401214143)
"23",2,1e+05,1,c(0.64, 0.36),c(0.4096, 0.2304, 0.2304, 0.1296),c(`0` = 0.03784, `1` = -0.03784),c(`0` = -0.0810694807475408, `1` = 0.0810694807475407),c(0.0470033344, -0.00916333440000003, -0.00916333440000003, -0.0286766656),c(-0.110341196065528, 0.0292717153179872, 0.0292717153179872, 0.0517977654295535)
"24",2,1e+05,3,c(0.64, 0.36),c(0.4096, 0.2304, 0.2304, 0.1296),c(`0` = 0.00773000000000001, `1` = -0.00773000000000001),c(`0` = -0.00613075754979686, `1` = 0.00613075754979681),c(0.00983464710000004, -0.0021046471, -0.0021046471, -0.00562535290000002),c(-0.00788495585187438, 0.00175419830207757, 0.00175419830207754, 0.00437655924771935)
"25",2,1e+05,5,c(0.64, 0.36),c(0.4096, 0.2304, 0.2304, 0.1296),c(`0` = 0.00157499999999999, `1` = -0.00157499999999999),c(`0` = -0.000303054860810281, `1` = 0.000303054860810337),c(0.00201351937499999, -0.000438519375000002, -0.000438519375000002, -0.00113648062499999),c(-0.000388002064085846, 8.49472032755649e-05, 8.49472032755649e-05, 0.000218107657534772)
"26",5,100,0.05,c(0.11, 0.29, 0.36, 0.15, 0.1),c(0.0121, 0.0319, 0.0396, 0.0165, 0.011, 0.0319, 0.0841, 0.1044, 0.0435, 0.029, 0.0396, 0.1044, 0.1296, 0.054, 0.036, 0.0165, 0.0435, 0.054, 0.0225, 0.015, 0.011, 0.029, 0.036, 0.015, 0.01),c(`0` = 0.015, `1` = 0.02, `2` = -0.01, `3` = -0.005, `4` = -0.01),c(`0` = 10.2546874088596, `1` = -6.80645827257304, `2` = -16.588541519106, `3` = 4.38343746093981, `4` = 8.76687492187962),c(0.003075, 0.00625, 0.00445, 0.001775, 0.00055, 0.00625, 0.0112, 0.00449999999999999, 0.00164999999999999, -0.000700000000000003, 0.00445, 0.00449999999999999, -0.0073, -0.00335, -0.0047, 0.001775, 0.00164999999999999, -0.00335, -0.001525, -0.00205, 0.00055, -0.000700000000000003, -0.0047, -0.00205, -0.0021),c(-102.902582623467, 72.0232508852658, 171.977255747403, -42.9303997061906, -87.9117368941514, 72.0232508852656, -50.2756200143689, -120.170217671304, 30.0859122911067, 61.5331162367275, 171.977255747402, -120.170217671304, -287.123459624851, 71.8045905752758, 146.926889454372, -42.9303997061902, 30.0859122911064, 71.8045905752755, -17.8994927356879, -36.6756729635641, -87.9117368941508, 61.5331162367274, 146.926889454372, -36.6756729635643, -75.1047209115046)
"27",5,100,0.5,c(0.11, 0.29, 0.36, 0.15, 0.1),c(0.0121, 0.0319, 0.0396, 0.0165, 0.011, 0.0319, 0.0841, 0.1044, 0.0435, 0.029, 0.0396, 0.1044, 0.1296, 0.054, 0.036, 0.0165, 0.0435, 0.054, 0.0225, 0.015, 0.011, 0.029, 0.036, 0.015, 0.01),c(`0` = 0, `1` = 0.00999999999999995, `2` = 0.005, `3` = 0, `4` = -0.00499999999999999),c(`0` = 0.69367233714156, `1` = -0.60659763301472, `2` = -1.18965791396602, `3` = 0.3853735206342, `4` = 0.72720968920498),c(0, 0.00109999999999999, 0.000549999999999995, 0, -0.000549999999999998, 0.00109999999999999, 0.00569999999999998, 0.00499999999999999, 0.00149999999999999, -0.000400000000000005, 0.000549999999999995, 0.00499999999999999, 0.00357499999999999, 0.000750000000000001, -0.001275, 0, 0.00149999999999999, 0.000750000000000001, 0, -0.000750000000000001, -0.000549999999999998, -0.000400000000000005, -0.001275, -0.000750000000000001, -0.001025),c(-0.328573397144293, 0.555219235937294, 0.944092456414459, -0.1208810128898, -0.355084945176101, 0.555219235937293, -0.719787315527598, -1.28501961764446, 0.254535341474965, 0.591354722745082, 0.944092456414459, -1.28501961764446, -2.27183965031751, 0.418748438988831, 1.00796045859266, -0.120881012889799, 0.254535341474963, 0.418748438988831, -0.0329006942157376, -0.132628552724058, -0.355084945176101, 0.591354722745082, 1.00796045859266, -0.132628552724058, -0.383391994232607)
"28",5,100,1,c(0.11, 0.29, 0.36, 0.15, 0.1),c(0.0121, 0.0319, 0.0396, 0.0165, 0.011, 0.0319, 0.0841, 0.1044, 0.0435, 0.029, 0.0396, 0.1044, 0.1296, 0.054, 0.036, 0.0165, 0.0435, 0.054, 0.0225, 0.015, 0.011, 0.029, 0.036, 0.015, 0.01),c(`0` = -0.025, `1` = 0.015, `2` = 0.01, `3` = 0.00999999999999998, `4` = 0),c(`0` = 0.164142429732531, `1` = -0.203241265075997, `2` = -0.426482530151995, `3` = 0.184593012060798, `4` = 0.290988353434663),c(-0.006125, -0.00522500000000001, -0.00765, -0.0024, -0.0025, -0.00522500000000001, 0.00847499999999998, 0.00814999999999999, 0.00499999999999999, 0.00149999999999999, -0.00765, 0.00814999999999999, 0.00710000000000001, 0.005, 0.001, -0.0024, 0.00499999999999999, 0.005, 0.0029, 0.000999999999999997, -0.0025, 0.00149999999999999, 0.001, 0.000999999999999997, 0),c(0.00916859730265779, 0.0586052805355622, 0.0821820751246174, 0.0146270502752617, 0.000659426494432057, 0.0586052805355618, -0.15918694557377, -0.283525638132341, 0.0605627010316571, 0.123203337062895, 0.0821820751246177, -0.283525638132342, -0.488954770234283, 0.0812067996511547, 0.186209003438857, 0.0146270502752617, 0.0605627010316571, 0.0812067996511547, 0.0213033235165615, 0.00839313758616282, 0.000659426494432009, 0.123203337062895, 0.186209003438857, 0.00839313758616279, -0.0264765511476839
)
"29",5,100,3,c(0.11, 0.29, 0.36, 0.15, 0.1),c(0.0121, 0.0319, 0.0396, 0.0165, 0.011, 0.0319, 0.0841, 0.1044, 0.0435, 0.029, 0.0396, 0.1044, 0.1296, 0.054, 0.036, 0.0165, 0.0435, 0.054, 0.0225, 0.015, 0.011, 0.029, 0.036, 0.015, 0.01),c(`0` = 0.005, `1` = 0, `2` = -0.025, `3` = -0.005, `4` = 0.035),c(`0` = 0.0298879558333466, `1` = -0.0235780634210652, `2` = -0.0734660192544118, `3` = 0.00678903171053258, `4` = 0.0703670951315978),c(0.001075, 0.00145, -0.000825000000000006, 0.000225000000000003, 0.004175, 0.00145, 0, -0.00725000000000001, -0.00145, 0.01015, -0.000825000000000006, -0.00725000000000001, -0.018625, -0.005675, 0.010975, 0.000225000000000003, -0.00145, -0.005675, -0.001525, 0.004925, 0.004175, 0.01015, 0.010975, 0.004925, 0.005775),c(0.00568206037944015, 0.00677862033351802, 0.00487415112074717, 0.005027076583245, 0.00862604741639633, 0.00677862033351803, -0.0142312018589056, -0.0315254348766368, -0.00140781809686678, 0.0197077710778258, 0.00487415112074716, -0.0315254348766367, -0.0582927898482661, -0.0080770883380052, 0.023155142687749, 0.005027076583245, -0.00140781809686679, -0.00807708833800523, 0.00199061856159315, 0.0107562430005664, 0.00862604741639632, 0.0197077710778258, 0.023155142687749, 0.0107562430005664, 0.00912189094906022
)
"30",5,100,5,c(0.11, 0.29, 0.36, 0.15, 0.1),c(0.0121, 0.0319, 0.0396, 0.0165, 0.011, 0.0319, 0.0841, 0.1044, 0.0435, 0.029, 0.0396, 0.1044, 0.1296, 0.054, 0.036, 0.0165, 0.0435, 0.054, 0.0225, 0.015, 0.011, 0.029, 0.036, 0.015, 0.01),c(`0` = 0.005, `1` = 0, `2` = -0.03, `3` = 0, `4` = 0.035),c(`0` = 0.00822223608049451, `1` = -0.00305264470783689, `2` = -0.036444472160989, `3` = 0.00169591372657607, `4` = 0.0395789670617554),c(0.001075, 0.00145, -0.00135, 0.000750000000000001, 0.004175, 0.00145, 0, -0.0087, 0, 0.01015, -0.00135, -0.0087, -0.0225, -0.0045, 0.01065, 0.000750000000000001, 0, -0.0045, 0, 0.00525, 0.004175, 0.01015, 0.01065, 0.00525, 0.005775),c(0.00174128677154542, 0.00207375711093904, -0.00074923189479411, 0.00140594171896548, 0.00485048237383867, 0.00207375711093905, -0.00177985257025767, -0.0117791010465803, 3.9095296593912e-05, 0.0112934565014681, -0.00074923189479411, -0.0117791010465802, -0.0275682195070052, -0.00479433520198535, 0.0120464154893759, 0.00140594171896548, 3.9095296593912e-05, -0.00479433520198535, 0.000505897994604831, 0.00603931391839718, 0.00485048237383867, 0.0112934565014681, 0.0120464154893759, 0.00603931391839718, 
0.00634929877867556)
"31",5,500,0.05,c(0.11, 0.29, 0.36, 0.15, 0.1),c(0.0121, 0.0319, 0.0396, 0.0165, 0.011, 0.0319, 0.0841, 0.1044, 0.0435, 0.029, 0.0396, 0.1044, 0.1296, 0.054, 0.036, 0.0165, 0.0435, 0.054, 0.0225, 0.015, 0.011, 0.029, 0.036, 0.015, 0.01),c(`0` = -0.034, `1` = 0.015, `2` = 0.045, `3` = -0.002, `4` = -0.014),c(`0` = 5.42716661805843, `1` = -7.29906243489969, `2` = -11.1698957335128, `3` = 4.6789999583358, `4` = 8.37279159201831),c(-0.008636, -0.00770000000000001, -0.00576, -0.005388, -0.005416, -0.00770000000000001, 0.00847499999999998, 0.017775, 0.00169999999999999, -0.00235, -0.00576, 0.017775, 0.030375, 0.00612, 8.99999999999929e-05, -0.005388, 0.00169999999999999, 0.00612, -0.000604, -0.002328, -0.005416, -0.00235, 8.99999999999929e-05, -0.002328, -0.002996),c(-28.2601608441929, 40.3842094412082, 61.3459767039273, -24.064947391651, -43.9768112912332, 40.3842094412082, -57.5097686408041, -87.3966985895107, 34.4143634514679, 62.8117319027389, 61.3459767039265, -87.3966985895107, -132.808895625675, 52.272897296695, 95.4204244810511, -24.0649473916506, 34.4143634514677, 52.2728972966947, -20.4893406226052, -37.4524727755709, -43.9768112912328, 62.8117319027388, 95.4204244810508, -37.452472775571, -68.4290807249675)
"32",5,500,0.5,c(0.11, 0.29, 0.36, 0.15, 0.1),c(0.0121, 0.0319, 0.0396, 0.0165, 0.011, 0.0319, 0.0841, 0.1044, 0.0435, 0.029, 0.0396, 0.1044, 0.1296, 0.054, 0.036, 0.0165, 0.0435, 0.054, 0.0225, 0.015, 0.011, 0.029, 0.036, 0.015, 0.01),c(`0` = -0.027, `1` = 0.03, `2` = 0.038, `3` = -0.012, `4` = -0.019),c(`0` = 0.458570635999092, `1` = -0.43244822476104, `2` = -0.902311390347447, `3` = 0.280883875681992, `4` = 0.605305103427404),c(-0.006669, -0.00372000000000001, -0.00451400000000001, -0.005694, -0.005303, -0.00372000000000001, 0.0165, 0.02068, 0.00137999999999999, -0.00194, -0.00451400000000001, 0.02068, 0.025916, 0.001836, -0.002318, -0.005694, 0.00137999999999999, 0.001836, -0.003744, -0.004278, -0.005303, -0.00194, -0.002318, -0.004278, -0.004161),c(-0.109401488280814, 0.283724237181373, 0.479604684162306, -0.0291222757884968, -0.165134521275277, 0.283724237181371, -0.437831437460378, -0.807554623052152, 0.1380568236363, 0.39405677493382, 0.479604684162307, -0.807554623052154, -1.46383004620091, 0.219216207086197, 0.673852387657107, -0.0291222757884968, 0.138056823636299, 0.219216207086197, 0.00536941108646119, -0.0511362903384685, -0.165134521275277, 0.394056774933821, 0.673852387657107, -0.0511362903384682, -0.245333247549779)
"33",5,500,1,c(0.11, 0.29, 0.36, 0.15, 0.1),c(0.0121, 0.0319, 0.0396, 0.0165, 0.011, 0.0319, 0.0841, 0.1044, 0.0435, 0.029, 0.0396, 0.1044, 0.1296, 0.054, 0.036, 0.0165, 0.0435, 0.054, 0.0225, 0.015, 0.011, 0.029, 0.036, 0.015, 0.01),c(`0` = -0.025, `1` = 0.018, `2` = 0.03, `3` = 0.00900000000000001, `4` = -0.022),c(`0` = 0.164142429732531, `1` = -0.191511614472958, `2` = -0.348284859465062, `3` = 0.180683128526451, `4` = 0.204970915679037),c(-0.006125, -0.00482, -0.00495000000000001, -0.002535, -0.00547, -0.00482, 0.010116, 0.01464, 0.005148, -0.004184, -0.00495000000000001, 0.01464, 0.0207, 0.00747, -0.00426000000000001, -0.002535, 0.005148, 0.00747, 0.002619, -0.002202, -0.00547, -0.004184, -0.00426000000000001, -0.002202, -0.004884),c(0.0091685973026578, 0.0579702087519999, 0.0779482632342026, 0.0148387408697824, 0.00531661957388841, 0.0579702087519996, -0.147753434872354, -0.236647386187774, 0.0582742827538527, 0.079544715081318, 0.0779482632342028, -0.236647386187774, -0.372067442147443, 0.075732395376306, 0.110349310259646, 0.0148387408697825, 0.0582742827538527, 0.0757323953763059, 0.0215585456238293, 0.0117791639026809, 0.00531661957388833, 0.079544715081318, 0.110349310259646, 0.0117791639026808, -0.00101889313849558)
"34",5,500,3,c(0.11, 0.29, 0.36, 0.15, 0.1),c(0.0121, 0.0319, 0.0396, 0.0165, 0.011, 0.0319, 0.0841, 0.1044, 0.0435, 0.029, 0.0396, 0.1044, 0.1296, 0.054, 0.036, 0.0165, 0.0435, 0.054, 0.0225, 0.015, 0.011, 0.029, 0.036, 0.015, 0.01),c(`0` = -0.014, `1` = 0.00899999999999995, `2` = 0.025, `3` = -0.001, `4` = -0.00899999999999999),c(`0` = 0.00591036466667726, `1` = -0.0122202570789587, `2` = -0.0103670951315978, `3` = 0.0118369456403577, `4` = 0.0148400419035215),c(-0.003276, -0.002944, -0.00194, -0.002224, -0.002516, -0.002944, 0.00513899999999998, 0.010265, 0.00106899999999999, -0.00162900000000001, -0.00194, 0.010265, 0.017375, 0.003415, -0.000515000000000002, -0.002224, 0.00106899999999999, 0.003415, -0.000300999999999999, -0.001459, -0.002516, -0.00162900000000001, -0.000515000000000002, -0.001459, -0.001881),c(0.00126534781617586, 0.000442003650308227, 0.00104862412829001, 0.0021186580551668, 0.00213573101673652, 0.000442003650308234, -0.00723708378887192, -0.00753243870425876, 0.00174432619261475, 0.0032629355712489, 0.00104862412829001, -0.00753243870425875, -0.00757178515621809, 0.00282895090231028, 0.00445955369827867, 0.00211865805516681, 0.00174432619261475, 0.00282895090231026, 0.00341097041001453, 0.00323404008025137, 0.00213573101673652, 0.0032629355712489, 0.00445955369827866, 0.00323404008025138, 
0.00274778153700602)
"35",5,500,5,c(0.11, 0.29, 0.36, 0.15, 0.1),c(0.0121, 0.0319, 0.0396, 0.0165, 0.011, 0.0319, 0.0841, 0.1044, 0.0435, 0.029, 0.0396, 0.1044, 0.1296, 0.054, 0.036, 0.0165, 0.0435, 0.054, 0.0225, 0.015, 0.011, 0.029, 0.036, 0.015, 0.01),c(`0` = -0.01, `1` = 0.00700000000000001, `2` = 0.016, `3` = 0.001, `4` = -0.00399999999999999),c(`0` = -0.00728653803747831, `1` = 0.00418478321388377, `2` = 0.011115768467461, `3` = 0.0027298320011076, `4` = -0.00074384564497397),c(-0.0023, -0.00206, -0.00168, -0.00138, -0.00148, -0.00206, 0.00401100000000001, 0.00704800000000001, 0.001333, -0.000431999999999998, -0.00168, 0.00704800000000001, 0.011264, 0.002744, 0.000224000000000002, -0.00138, 0.001333, 0.002744, 0.000299000000000001, -0.000496, -0.00148, -0.000431999999999998, 0.000224000000000002, -0.000496, -0.000815999999999997),c(-0.00165613200481682, -0.00162227729527496, -0.00131942369231756, -0.000772808160787924, -0.000815896884281082, -0.00162227729527496, 0.00240966185350541, 0.00468357773126976, 0.00140794500726882, 0.000205875917114729, -0.00131942369231755, 0.00468357773126979, 0.00787979298794968, 0.00261976061003848, 0.000852060830520522, -0.000772808160787921, 0.00140794500726882, 0.00261976061003848, 0.000811497617578, 0.000163436927010194, -0.000815896884281086, 0.000205875917114726, 0.000852060830520522, 
0.000163436927010194, -0.000149322435338337)
"36",5,1000,0.05,c(0.11, 0.29, 0.36, 0.15, 0.1),c(0.0121, 0.0319, 0.0396, 0.0165, 0.011, 0.0319, 0.0841, 0.1044, 0.0435, 0.029, 0.0396, 0.1044, 0.1296, 0.054, 0.036, 0.0165, 0.0435, 0.054, 0.0225, 0.015, 0.011, 0.029, 0.036, 0.015, 0.01),c(`0` = -0.022, `1` = 0.016, `2` = 0.0405, `3` = -0.0155, `4` = -0.00899999999999999),c(`0` = 6.60941660764238, `1` = -7.20054160243436, `2` = -11.6132394796068, `3` = 3.34896872005386, `4` = 8.86539575434495),c(-0.005324, -0.00426800000000001, -0.00257400000000001, -0.005346, -0.003388, -0.00426800000000001, 0.00902399999999998, 0.016857, -0.00184700000000001, -0.000866000000000006, -0.00257400000000001, 0.016857, 0.02751975, 0.00112275, 0.00117449999999999, -0.005346, -0.00184700000000001, 0.00112275, -0.00489025, -0.0030395, -0.003388, -0.000866000000000006, 0.00117449999999999, -0.0030395, -0.001881),c(-42.2303162396947, 48.716050491096, 77.858671521034, -20.7749304264465, -56.9589587383464, 48.716050491096, -56.0241134977984, -89.5816484379024, 24.0055082824493, 65.6865615597211, 77.8586715210331, -89.5816484379024, -143.228863636012, 38.3560185729756, 104.986182500299, -20.7749304264462, 24.0055082824491, 38.3560185729754, -10.2109008718827, -28.0252268370417, -56.9589587383459, 65.686561559721, 104.986182500299, -28.025226837042, -76.8221627302871)
"37",5,1000,0.5,c(0.11, 0.29, 0.36, 0.15, 0.1),c(0.0121, 0.0319, 0.0396, 0.0165, 0.011, 0.0319, 0.0841, 0.1044, 0.0435, 0.029, 0.0396, 0.1044, 0.1296, 0.054, 0.036, 0.0165, 0.0435, 0.054, 0.0225, 0.015, 0.011, 0.029, 0.036, 0.015, 0.01),c(`0` = -0.018, `1` = 0.018, `2` = 0.035, `3` = -0.00950000000000001, `4` = -0.0155),c(`0` = 0.536937869713248, `1` = -0.536937869713248, `2` = -0.928433801585499, `3` = 0.302652551713702, `4` = 0.635781249871798),c(-0.004284, -0.00291600000000001, -0.00200000000000001, -0.003916, -0.003784, -0.00291600000000001, 0.010116, 0.016, 0.000115999999999991, -0.00241600000000001, -0.00200000000000001, 0.016, 0.023975, 0.0021625, -0.0015375, -0.003916, 0.000115999999999991, 0.0021625, -0.00294025, -0.00342225, -0.003784, -0.00241600000000001, -0.0015375, -0.00342225, -0.00334025),c(-0.170175944595289, 0.384951092480588, 0.589681182515453, -0.0486731552349382, -0.217745305452566, 0.384951092480586, -0.599726240365884, -0.961054703149653, 0.16973417592042, 0.472057805401284, 0.589681182515454, -0.961054703149654, -1.53046166106806, 0.250682707526211, 0.726318672590551, -0.0486731552349379, 0.169734175920419, 0.250682707526212, -0.000802801544704232, -0.0667883749532864, -0.217745305452566, 0.472057805401285, 0.72631867259055, -0.0667883749532864, -0.277061547714185)
"38",5,1000,1,c(0.11, 0.29, 0.36, 0.15, 0.1),c(0.0121, 0.0319, 0.0396, 0.0165, 0.011, 0.0319, 0.0841, 0.1044, 0.0435, 0.029, 0.0396, 0.1044, 0.1296, 0.054, 0.036, 0.0165, 0.0435, 0.054, 0.0225, 0.015, 0.011, 0.029, 0.036, 0.015, 0.01),c(`0` = -0.0155, `1` = 0.00750000000000001, `2` = 0.0335, `3` = -0.012, `4` = -0.00349999999999999),c(`0` = 0.201286323308824, `1` = -0.232565391583597, `2` = -0.334600267094849, `3` = 0.098575574305172, `4` = 0.27730376106445),c(-0.00365025, -0.00355375, -0.00137575, -0.003831, -0.00198925, -0.00355375, 0.00429375000000001, 0.01216375, -0.002265, -0.000238749999999999, -0.00137575, 0.01216375, 0.02299775, 0.001107, 0.00220725, -0.003831, -0.002265, 0.001107, -0.003744, -0.001767, -0.00198925, -0.000238749999999999, 0.00220725, -0.001767, -0.000712249999999998),c(0.00376680717675668, 0.0796030732861027, 0.103007504552416, 0.0211943467499487, -0.00518540845639975, 0.0796030732861023, -0.188974588480918, -0.258574060568491, 0.0166273748498204, 0.121652809329889, 0.103007504552416, -0.258574060568491, -0.352869531048235, 0.0182805801771733, 0.159155239792288, 0.0211943467499488, 0.0166273748498203, 0.0182805801771732, 0.0198555284419572, 0.0241177440862724, -0.00518540845639981, 0.121652809329889, 0.159155239792288, 0.0241177440862724, -0.0214366236875996)
"39",5,1000,3,c(0.11, 0.29, 0.36, 0.15, 0.1),c(0.0121, 0.0319, 0.0396, 0.0165, 0.011, 0.0319, 0.0841, 0.1044, 0.0435, 0.029, 0.0396, 0.1044, 0.1296, 0.054, 0.036, 0.0165, 0.0435, 0.054, 0.0225, 0.015, 0.011, 0.029, 0.036, 0.015, 0.01),c(`0` = -0.00749999999999999, `1` = -0.0015, `2` = 0.015, `3` = -5e-04, `4` = 0.0045),c(`0` = 0.0141132248026431, `1` = -0.0254710311447496, `2` = -0.0229868799561606, `3` = 0.0124679348815858, `4` = 0.0318767514166812),c(-0.00170625, -0.00235125, -0.000937500000000001, -0.00118375, -0.000221249999999999, -0.00235125, -0.000872249999999991, 0.0038325, -0.000370749999999996, 0.00116175, -0.000937500000000001, 0.0038325, 0.010575, 0.0020775, 0.0030525, -0.00118375, -0.000370749999999996, 0.0020775, -0.000150249999999998, 0.000627249999999999, -0.000221249999999999, 0.00116175, 0.0030525, 0.000627249999999999, 0.000879750000000002),c(0.00290572634225151, 0.00165050015534506, 0.00287662313810654, 0.00331249378956239, 0.00446788137737766, 0.00165050015534505, -0.0154219714915315, -0.0164212659346805, 0.000112617601627028, 0.00750908852449033, 0.00287662313810655, -0.0164212659346805, -0.0170789502185545, 0.00132702348637107, 0.00990968957259682, 0.00331249378956239, 0.000112617601627035, 0.00132702348637107, 0.00358493106426429, 0.00563086893976109, 0.00446788137737766, 0.00750908852449032, 0.00990968957259681, 0.00563086893976109, 
0.00535922300245536)
"40",5,1000,5,c(0.11, 0.29, 0.36, 0.15, 0.1),c(0.0121, 0.0319, 0.0396, 0.0165, 0.011, 0.0319, 0.0841, 0.1044, 0.0435, 0.029, 0.0396, 0.1044, 0.1296, 0.054, 0.036, 0.0165, 0.0435, 0.054, 0.0225, 0.015, 0.011, 0.029, 0.036, 0.015, 0.01),c(`0` = -0.001, `1` = -0.00600000000000001, `2` = 0.011, `3` = -0.0025, `4` = 0.00850000000000001),c(`0` = 0.00201872643330538, `1` = -0.00925615435502603, `2` = 0.00594617709480338, `3` = -0.00088888195975273, `4` = 0.01218013278667),c(-0.000221000000000001, -0.000955999999999999, 0.000861000000000001, -0.000427500000000001, 0.0008435, -0.000955999999999999, -0.00351599999999999, 0.001096, -0.00164, 0.001916, 0.000861000000000001, 0.001096, 0.00779900000000001, 0.000777500000000007, 0.0040665, -0.000427500000000001, -0.00164, 0.000777500000000007, -0.00075625, 0.00104625, 0.0008435, 0.001916, 0.0040665, 0.00104625, 0.00162775),c(0.000440044558914674, -0.000414060669927094, 0.00136881729153989, 0.000206826358931239, 0.00151709889384662, -0.000414060669927087, -0.00545424591935914, -0.00155278547730461, -0.00165442655020508, 0.00271936426176983, 0.0013688172915399, -0.0015527854773046, 0.00424589048621565, 0.00057721450825856, 0.00490704028609378, 0.000206826358931243, -0.00165442655020507, 0.00057721450825856, -0.000267454699064203, 0.00174895842232669, 0.00151709889384662, 0.00271936426176984, 0.00490704028609378, 0.00174895842232669, 
0.0022876709226331)
"41",5,10000,0.05,c(0.11, 0.29, 0.36, 0.15, 0.1),c(0.0121, 0.0319, 0.0396, 0.0165, 0.011, 0.0319, 0.0841, 0.1044, 0.0435, 0.029, 0.0396, 0.1044, 0.1296, 0.054, 0.036, 0.0165, 0.0435, 0.054, 0.0225, 0.015, 0.011, 0.029, 0.036, 0.015, 0.01),c(`0` = -0.0141, `1` = 0.01865, `2` = 0.03035, `3` = -0.00935, `4` = -0.01555),c(`0` = 7.38773118411848, `1` = -6.93946139640123, `2` = -12.6132259291299, `3` = 3.95487183971563, `4` = 8.22008430169705),c(-0.00330081, -0.001774535, -0.00130956500000001, -0.003275335, -0.003339755, -0.001774535, 0.0104691775, 0.0149494725, 0.000260377500000006, -0.0023544925, -0.00130956500000001, 0.0149494725, 0.0209308775, 0.0014702725, -0.0020910575, -0.003275335, 0.000260377500000006, 0.0014702725, -0.0028924225, -0.0034128925, -0.003339755, -0.0023544925, -0.0020910575, -0.0034128925, -0.0033518025),c(-52.9532711882869, 52.6459766489678, 94.4552509030407, -27.6743344394726, -59.0847907401304, 52.6459766489677, -52.1810120820542, -93.6850360414341, 27.550674083478, 58.7328359946414, 94.4552509030398, -93.685036041434, -168.174991008245, 49.4154620080143, 105.379688209495, -27.6743344394723, 27.5506740834778, 49.415462008014, -14.4545497166605, -30.8808800956434, -59.0847907401298, 58.7328359946413, 105.379688209495, -30.8808800956435, -65.9257690666656)
"42",5,10000,0.5,c(0.11, 0.29, 0.36, 0.15, 0.1),c(0.0121, 0.0319, 0.0396, 0.0165, 0.011, 0.0319, 0.0841, 0.1044, 0.0435, 0.029, 0.0396, 0.1044, 0.1296, 0.054, 0.036, 0.0165, 0.0435, 0.054, 0.0225, 0.015, 0.011, 0.029, 0.036, 0.015, 0.01),c(`0` = -0.01545, `1` = 0.01865, `2` = 0.0283, `3` = -0.00925000000000001, `4` = -0.01225),c(`0` = 0.559141919265592, `1` = -0.531278013945003, `2` = -0.986773853350482, `3` = 0.304829419316873, `4` = 0.664080528713021),c(-0.0036377025, -0.0021408575, -0.00201176500000001, -0.0034779125, -0.0030817625, -0.0021408575, 0.0104691775, 0.014393205, 0.000287512499999996, -0.0014590375, -0.00201176500000001, 0.014393205, 0.01957511, 0.001176775, -0.001233325, -0.0034779125, 0.000287512499999996, 0.001176775, -0.0028605625, -0.0028758125, -0.0030817625, -0.0014590375, -0.001233325, -0.0028758125, -0.0026000625),c(-0.189628463641582, 0.400770383433894, 0.644492593310551, -0.0530403825507561, -0.242352211286515, 0.400770383433892, -0.590397576189448, -1.00167575551274, 0.17065799799682, 0.492266936326476, 0.644492593310552, -1.00167575551274, -1.68419981206851, 0.262520213665401, 0.795688907254812, -0.053040382550756, 0.170657997996818, 0.262520213665402, -0.00147214908599946, -0.0723362607085916, -0.242352211286515, 0.492266936326476, 0.795688907254812, -0.0723362607085912, -0.308186842873161)
"43",5,10000,1,c(0.11, 0.29, 0.36, 0.15, 0.1),c(0.0121, 0.0319, 0.0396, 0.0165, 0.011, 0.0319, 0.0841, 0.1044, 0.0435, 0.029, 0.0396, 0.1044, 0.1296, 0.054, 0.036, 0.0165, 0.0435, 0.054, 0.0225, 0.015, 0.011, 0.029, 0.036, 0.015, 0.01),c(`0` = -0.01205, `1` = 0.01535, `2` = 0.02335, `3` = -0.00659999999999999, `4` = -0.01005),c(`0` = 0.21477542150232, `1` = -0.201872805838976, `2` = -0.374285584968467, `3` = 0.119688945390644, `4` = 0.25169402391448),c(-0.0027962025, -0.0016210325, -0.0014881325, -0.00261303, -0.0024316025, -0.0016210325, 0.00866737749999999, 0.0119390775, 0.00048981, -0.0012252325, -0.0014881325, 0.0119390775, 0.0162667775, 0.00128061, -0.0010483325, -0.00261303, 0.00048981, 0.00128061, -0.00202356, -0.00223383, -0.0024316025, -0.0012252325, -0.0010483325, -0.00223383, -0.0021110025),c(0.00112211104901102, 0.0834361805573078, 0.116535081668149, 0.0196758535228751, -0.00489380529502245, 0.0834361805573074, -0.157838857123907, -0.256775110965554, 0.0285908165213575, 0.10361416517182, 0.116535081668149, -0.256775110965554, -0.409575320292484, 0.0317430295351578, 0.147386735086264, 0.0196758535228752, 0.0285908165213575, 0.0317430295351576, 0.0215812399684687, 0.0195980058427848, -0.00489380529502254, 0.10361416517182, 0.147386735086264, 0.0195980058427848, -0.0130110768913667)
"44",5,10000,3,c(0.11, 0.29, 0.36, 0.15, 0.1),c(0.0121, 0.0319, 0.0396, 0.0165, 0.011, 0.0319, 0.0841, 0.1044, 0.0435, 0.029, 0.0396, 0.1044, 0.1296, 0.054, 0.036, 0.0165, 0.0435, 0.054, 0.0225, 0.015, 0.011, 0.029, 0.036, 0.015, 0.01),c(`0` = -0.0028, `1` = 0.00674999999999998, `2` = 0.00739999999999996, `3` = -0.00215000000000001, `4` = 0.000800000000000009),c(`0` = 0.0200445236701876, `1` = -0.0150597086644853, `2` = -0.0325779164228283, `3` = 0.010385670385533, `4` = 0.027207431031593),c(-0.000623840000000001, -5.06000000000048e-05, -0.000173280000000005, -0.00066252, -0.000189759999999999, -5.06000000000048e-05, 0.00386943749999999, 0.00452604999999999, 0.000403512499999995, 0.000901599999999999, -0.000173280000000005, 0.00452604999999999, 0.00527323999999997, 0.00035190999999999, 0.00102207999999999, -0.00066252, 0.000403512499999995, 0.00035190999999999, -0.000649622500000002, -9.32800000000011e-05, -0.000189759999999999, 0.000901599999999999, 0.00102207999999999, -9.32800000000011e-05, 
0.000159360000000002),c(0.00400801227827653, 0.00445820859805247, 0.00428546653161925, 0.00394092647706319, 0.00445190978517623, 0.00445820859805246, -0.00896142585046064, -0.0153597048120587, 0.000909293282423264, 0.00679392011755831, 0.00428546653161924, -0.0153597048120587, -0.0245174204628892, -0.00080950262281744, 0.00742324494331775, 0.0039409264770632, 0.000909293282423257, -0.000809502622817433, 0.00300783896630295, 0.004837114282561, 0.00445190978517624, 0.0067939201175583, 0.00742324494331774, 0.004837114282561, 
0.00470124190297971)
"45",5,10000,5,c(0.11, 0.29, 0.36, 0.15, 0.1),c(0.0121, 0.0319, 0.0396, 0.0165, 0.011, 0.0319, 0.0841, 0.1044, 0.0435, 0.029, 0.0396, 0.1044, 0.1296, 0.054, 0.036, 0.0165, 0.0435, 0.054, 0.0225, 0.015, 0.011, 0.029, 0.036, 0.015, 0.01),c(`0` = 0.000750000000000001, `1` = 0.00379999999999997, `2` = 0.00205, `3` = 0.00025, `4` = 0.00315),c(`0` = 0.00382808341373554, `1` = 0.000876244735382836, `2` = -0.00330739146225373, `3` = 0.00195439329520894, `4` = 0.00664867001792641),c(0.0001644375, 0.000632649999999998, 0.0004939625, 0.000139812500000003, 0.0004191375, 0.000632649999999998, 0.00218955999999999, 0.00195471, 0.000641549999999998, 0.00128153, 0.0004939625, 0.00195471, 0.00147179750000001, 0.000396987500000001, 0.0013325425, 0.000139812500000003, 0.000641549999999998, 0.000396987500000001, 7.49375000000004e-05, 0.0004967125, 0.0004191375, 0.00128153, 0.0013325425, 0.0004967125, 0.000620077500000002),c(0.000827524128399326, 0.0012031767729375, 0.00102695793849626, 0.000781714193976012, 0.00108871037992643, 0.00120317677293752, 0.000507454141685793, -0.000640797334959128, 0.000696498239082237, 0.00200991291663643, 0.00102695793849627, -0.000640797334959115, -0.00239226069110732, 0.000213936810635598, 0.00208477181468076, 0.000781714193976008, 0.000696498239082244, 0.000213936810635598, 0.000582498335410325, 0.00117974571610476, 0.00108871037992643, 0.00200991291663643, 0.00208477181468075, 0.00117974571610476, 
0.00128552919057801)
"46",5,1e+05,0.05,c(0.11, 0.29, 0.36, 0.15, 0.1),c(0.0121, 0.0319, 0.0396, 0.0165, 0.011, 0.0319, 0.0841, 0.1044, 0.0435, 0.029, 0.0396, 0.1044, 0.1296, 0.054, 0.036, 0.0165, 0.0435, 0.054, 0.0225, 0.015, 0.011, 0.029, 0.036, 0.015, 0.01),c(`0` = -0.015865, `1` = 0.020845, `2` = 0.03301, `3` = -0.009075, `4` = -0.018915),c(`0` = 7.21384191481718, `1` = -6.72320816913983, `2` = -12.3511605147721, `3` = 3.9819650686436, `4` = 7.88856170045121),c(-0.003741998225, -0.001977194075, -0.00155659635000001, -0.003521974875, -0.003967236475, -0.001977194075, 0.011655585975, 0.01638900655, 0.000684168375000002, -0.003006566825, -0.00155659635000001, 0.01638900655, 0.0226775399, 0.00198406575, -0.00288401585, -0.003521974875, 0.000684168375000002, 0.00198406575, -0.002804855625, -0.003916403625, -0.003967236475, -0.003006566825, -0.00288401585, -0.003916403625, -0.004140777225),c(-50.4524699507098, 49.8526221492716, 90.3376748508049, -27.2051740707456, -55.3177110638039, 49.8526221492716, -49.1009888236884, -89.0416147614456, 26.9178687232695, 54.6518045434532, 90.3376748508041, -89.0416147614456, -161.444001632299, 48.7627230745279, 99.0376579536403, -27.2051740707453, 26.9178687232693, 48.7627230745276, -14.6614562873043, -29.8304963711037, -55.3177110638035, 54.6518045434531, 99.03765795364, -29.8304963711039, -60.6516933617345)
"47",5,1e+05,0.5,c(0.11, 0.29, 0.36, 0.15, 0.1),c(0.0121, 0.0319, 0.0396, 0.0165, 0.011, 0.0319, 0.0841, 0.1044, 0.0435, 0.029, 0.0396, 0.1044, 0.1296, 0.054, 0.036, 0.0165, 0.0435, 0.054, 0.0225, 0.015, 0.011, 0.029, 0.036, 0.015, 0.01),c(`0` = -0.01444, `1` = 0.01882, `2` = 0.03038, `3` = -0.00759500000000002, `4` = -0.017165),c(`0` = 0.567936464382403, `1` = -0.529797743974846, `2` = -0.9686623148921, `3` = 0.319240282849865, `4` = 0.621283311634679),c(-0.0033853136, -0.0018456392, -0.0014179128, -0.0031111218, -0.0035800126, -0.0018456392, 0.0105614076, 0.0150136484, 0.000763387899999995, -0.0027728047, -0.0014179128, 0.0150136484, 0.0209506556, 0.00205353609999999, -0.00261992730000001, -0.0031111218, 0.000763387899999995, 0.00205353609999999, -0.002336184025, -0.003464618175, -0.0035800126, -0.0027728047, -0.00261992730000001, -0.003464618175, -0.003727637225),c(-0.197605805411058, 0.407315280384514, 0.648042922839825, -0.0610012967593437, -0.227714636671535, 0.407315280384512, -0.587968341026249, -0.984834368252939, 0.182242802069984, 0.456346882849846, 0.648042922839826, -0.984834368252941, -1.63574354701443, 0.278863185984294, 0.728609491551152, -0.0610012967593439, 0.182242802069983, 0.278863185984295, -0.0061422733391021, -0.0732221351059674, -0.227714636671534, 0.456346882849846, 0.728609491551152, -0.073222135105967, -0.261736290988817)
"48",5,1e+05,1,c(0.11, 0.29, 0.36, 0.15, 0.1),c(0.0121, 0.0319, 0.0396, 0.0165, 0.011, 0.0319, 0.0841, 0.1044, 0.0435, 0.029, 0.0396, 0.1044, 0.1296, 0.054, 0.036, 0.0165, 0.0435, 0.054, 0.0225, 0.015, 0.011, 0.029, 0.036, 0.015, 0.01),c(`0` = -0.01227, `1` = 0.01639, `2` = 0.027425, `3` = -0.006795, `4` = -0.01475),c(`0` = 0.213915247124764, `1` = -0.197806526963256, `2` = -0.358352809566005, `3` = 0.118926518101446, `4` = 0.23331757130305),c(-0.0028499529, -0.00155429470000001, -0.00106394525, -0.00267132465, -0.0030304825, -0.00155429470000001, 0.00923756789999998, 0.01340415425, 0.000599320049999998, -0.0023967475, -0.00106394525, 0.01340415425, 0.018993869375, 0.001853902875, -0.00216298125000001, -0.00267132465, 0.000599320049999998, 0.001853902875, -0.002084672025, -0.00299222625, -0.0030304825, -0.0023967475, -0.00216298125000001, -0.00299222625, -0.0031675625),c(0.0013016214149991, 0.0825905357984596, 0.114247809728819, 0.0197290085505151, -0.00285372836802965, 0.0825905357984593, -0.153855207747953, -0.24601718916869, 0.0283421527144108, 0.0940331814405172, 0.11424780972882, -0.24601718916869, -0.386430759011373, 0.0316782769751755, 0.131769051910062, 0.0197290085505152, 0.0283421527144107, 0.0316782769751755, 0.0215344387227002, 0.0191426411386445, -0.00285372836802976, 0.0940331814405173, 0.131769051910062, 0.0191426411386445, -0.0077735748181439)
"49",5,1e+05,3,c(0.11, 0.29, 0.36, 0.15, 0.1),c(0.0121, 0.0319, 0.0396, 0.0165, 0.011, 0.0319, 0.0841, 0.1044, 0.0435, 0.029, 0.0396, 0.1044, 0.1296, 0.054, 0.036, 0.0165, 0.0435, 0.054, 0.0225, 0.015, 0.011, 0.029, 0.036, 0.015, 0.01),c(`0` = -0.00221499999999999, `1` = 0.00758999999999999, `2` = 0.00927, `3` = -0.000645000000000007, `4` = -0.00399999999999999),c(`0` = 0.0207827810824245, `1` = -0.013999646739222, `2` = -0.030218016660635, `3` = 0.0122849480016297, `4` = 0.0211499343158029),c(-0.000492206225, 0.000209361849999999, 0.000242833050000002, -0.000404628674999997, -0.000670359999999998, 0.000209361849999999, 0.0043445919, 0.0053503407, 0.000956345549999994, -0.000370639999999998, 0.000242833050000002, 0.0053503407, 0.00658846710000001, 0.00116427915, -0.000475919999999998, -0.000404628674999997, 0.000956345549999994, 0.00116427915, -0.000193916025000001, -0.00066708, -0.000670359999999998, -0.000370639999999998, -0.000475919999999998, -0.00066708, -0.000815999999999997),c(0.00414028784861339, 0.00477799696600126, 0.00478583378200605, 0.00421344605761612, 0.00396521642818779, 0.00477799696600126, -0.00831578521757177, -0.014226139216113, 0.00163467284182181, 0.00502960788663961, 0.00478583378200605, -0.014226139216113, -0.0226701005265597, 0.000261105544879729, 0.0052312837551518, 0.00421344605761612, 0.0016346728418218, 0.000261105544879715, 0.00353456445308616, 0.00414115910422587, 0.00396521642818778, 0.00502960788663961, 0.0052312837551518, 0.00414115910422588, 
0.0037826671415978)
"50",5,1e+05,5,c(0.11, 0.29, 0.36, 0.15, 0.1),c(0.0121, 0.0319, 0.0396, 0.0165, 0.011, 0.0319, 0.0841, 0.1044, 0.0435, 0.029, 0.0396, 0.1044, 0.1296, 0.054, 0.036, 0.0165, 0.0435, 0.054, 0.0225, 0.015, 0.011, 0.029, 0.036, 0.015, 0.01),c(`0` = 0.00107, `1` = 0.00420499999999996, `2` = 0.00360499999999997, `3` = 0.00101499999999999, `4` = 0.000105000000000008),c(`0` = 0.00415893726158563, `1` = 0.0012949816365681, `2` = -0.00169964854535726, `3` = 0.00274534077522554, `4` = 0.00350038887197793),c(0.000234255100000001, 0.000768350649999996, 0.000777892649999994, 0.000271063950000001, 0.000118437650000001, 0.000768350649999996, 0.00242121797499999, 0.00254409097499998, 0.00092083192499999, 0.000450508474999996, 0.000777892649999994, 0.00254409097499998, 0.00258260397499999, 0.000902490924999992, 0.000397921474999993, 0.000271063950000001, 0.00092083192499999, 0.000902490924999992, 0.000303469774999999, 0.000117143424999999, 0.000118437650000001, 0.000450508474999996, 0.000397921474999993, 
0.000117143424999999, 2.09889750000022e-05),c(0.000897669438403055, 0.00134315403850091, 0.00131732480584839, 0.000914410374466825, 0.000786378604366424, 0.00134315403850092, 0.000749412371770494, -2.4503675334242e-05, 0.000986840904410584, 0.00114007799722035, 0.00131732480584838, -2.45036753342143e-05, -0.00122663575783502, 0.0007380415117327, 0.00109612457023075, 0.000914410374466818, 0.000986840904410584, 0.0007380415117327, 0.000816065336595544, 0.000789982648019853, 0.000786378604366422, 0.00114007799722034, 0.00109612457023076, 0.000789982648019855, 
0.000687825052140521)
"51",9,100,0.05,c(0.11, 0.11, 0.09, 0.09, 0.11, 0.11, 0.09, 0.15, 0.1),c(0.0121, 0.0121, 0.0099, 0.0099, 0.0121, 0.0121, 0.0099, 0.0165, 0.011, 0.0121, 0.0121, 0.0099, 0.0099, 0.0121, 0.0121, 0.0099, 0.0165, 0.011, 0.0099, 0.0099, 0.0081, 0.0081, 0.0099, 0.0099, 0.0081, 0.0135, 0.009, 0.0099, 0.0099, 0.0081, 0.0081, 0.0099, 0.0099, 0.0081, 0.0135, 0.009, 0.0121, 0.0121, 0.0099, 0.0099, 0.0121, 0.0121, 0.0099, 0.0165, 0.011, 0.0121, 0.0121, 0.0099, 0.0099, 0.0121, 0.0121, 0.0099, 0.0165, 0.011, 0.0099, 0.0099, 0.0081, 0.0081, 0.0099, 0.0099, 0.0081, 0.0135, 0.009, 0.0165, 
0.0165, 0.0135, 0.0135, 0.0165, 0.0165, 0.0135, 0.0225, 0.015, 0.011, 0.011, 0.009, 0.009, 0.011, 0.011, 0.009, 0.015, 0.01),c(`0` = 0.01, `1` = -0.015, `2` = 0, `3` = 0, `4` = 0.005, `5` = -0.005, `6` = -0.005, `7` = -0.025, `8` = -0.00499999999999999),c(`0` = 1.96041664930658, `1` = -2.45302081163322, `2` = 3.7057916336825, `3` = 3.7057916336825, `4` = 1.07772915711862, `5` = -0.687645827257304, `6` = 2.82310414149454, `7` = -11.2398957335128, `8` = 1.06772915711862),c(0.0021, -0.000400000000000001, 9e-04, 9e-04, 0.0016, 0.000599999999999998, 0.000399999999999998, -0.000999999999999997, 5e-04, -0.000400000000000001, -0.003525, -0.00135, -0.00135, -0.001025, -0.002275, -0.001975, -0.005375, -0.002125, 9e-04, -0.00135, 0, 0, 0.000449999999999999, -0.000450000000000001, -0.000450000000000001, -0.00225, -0.000450000000000001, 9e-04, -0.00135, 0, 0, 0.000449999999999999, -0.000450000000000001, -0.000450000000000001, -0.00225, -0.000450000000000001, 0.0016, -0.001025, 
0.000449999999999999, 0.000449999999999999, 0.001075, 2.4999999999999e-05, -7.50000000000004e-05, -0.001875, -2.49999999999972e-05, 0.000599999999999998, -0.002275, -0.000450000000000001, -0.000450000000000001, 2.4999999999999e-05, -0.001125, -0.001025, -0.003625, -0.001075, 0.000399999999999998, -0.001975, -0.000450000000000001, -0.000450000000000001, -7.50000000000004e-05, -0.001025, -0.000925, -0.003125, -0.000975, -0.000999999999999997, -0.005375, -0.00225, -0.00225, -0.001875, -0.003625, -0.003125, 
-0.008125, -0.003375, 5e-04, -0.002125, -0.000450000000000001, -0.000450000000000001, -2.49999999999972e-05, -0.001075, -0.000975, -0.003375, -0.001025),c(-3.4119417760317, 4.7547563823647, -6.68082103939112, -6.68082103938992, -1.77860214435193, 1.48807711900786, -5.04748140771101, 21.0925526991603, -1.77970214435071, 4.75475638236559, -6.5569756808655, 9.27724920765739, 9.27724920765805, 2.49240996971939, -2.03228285557278, 7.01490279501194, -29.1760398073272, 2.49130996971988, -6.68082103938982, 9.27724920765864, -13.0658491382088, -13.0658491382089, -3.48920698998042, 2.89402110883848, -9.87423508880016, 41.1969897017543, -3.49010698998089, -6.68082103938963, 
9.27724920765798, -13.065849138209, -13.065849138209, -3.48920698998033, 2.89402110883856, -9.87423508879932, 41.196989701754, -3.49010698998082, -1.77860214435201, 2.49240996971952, -3.48920698998015, -3.4892069899804, -0.924399721537449, 0.784005124090826, -2.63500456716559, 11.0388341978617, -0.925499721537771, 1.48807711900695, -2.03228285557302, 2.89402110883917, 2.89402110883869, 0.78400512409102, -0.624138865741104, 2.18994911392268, -9.06860280473279, 0.782905124091077, -5.04748140771031, 
7.01490279501173, -9.8742350887993, -9.8742350887996, -2.63500456716612, 2.18994911392263, -7.46175824825544, 31.1432712004569, -2.63590456716611, 21.0925526991582, -29.1760398073278, 41.1969897017534, 41.1969897017538, 11.0388341978622, -9.0686028047322, 31.1432712004576, -129.7072248203, 11.0373341978625, -1.77970214435174, 2.49130996971958, -3.49010698998018, -3.49010698998037, -0.92549972153765, 0.782905124090964, -2.63590456716636, 11.0373341978618, -0.926499721537416)
"52",9,100,0.5,c(0.11, 0.11, 0.09, 0.09, 0.11, 0.11, 0.09, 0.15, 0.1),c(0.0121, 0.0121, 0.0099, 0.0099, 0.0121, 0.0121, 0.0099, 0.0165, 0.011, 0.0121, 0.0121, 0.0099, 0.0099, 0.0121, 0.0121, 0.0099, 0.0165, 0.011, 0.0099, 0.0099, 0.0081, 0.0081, 0.0099, 0.0099, 0.0081, 0.0135, 0.009, 0.0099, 0.0099, 0.0081, 0.0081, 0.0099, 0.0099, 0.0081, 0.0135, 0.009, 0.0121, 0.0121, 0.0099, 0.0099, 0.0121, 0.0121, 0.0099, 0.0165, 0.011, 0.0121, 0.0121, 0.0099, 0.0099, 0.0121, 0.0121, 0.0099, 0.0165, 0.011, 0.0099, 0.0099, 0.0081, 0.0081, 0.0099, 0.0099, 0.0081, 0.0135, 0.009, 0.0165, 
0.0165, 0.0135, 0.0135, 0.0165, 0.0165, 0.0135, 0.0225, 0.015, 0.011, 0.011, 0.009, 0.009, 0.011, 0.011, 0.009, 0.015, 0.01),c(`0` = 0.01, `1` = -0.015, `2` = 0, `3` = -0.005, `4` = -0.01, `5` = 0.005, `6` = -0.01, `7` = -0.01, `8` = -0.00499999999999999),c(`0` = 0.16414940825368, `1` = -0.2076867603171, `2` = 0.292883875681992, `3` = 0.218516641967836, `4` = -0.133319526602944, `5` = 0.089782174539524, `6` = 0.14414940825368, `7` = -0.688257396316191, `8` = 0.079782174539524),c(0.0021, -0.000400000000000001, 9e-04, 0.000399999999999998, 9.99999999999994e-05, 0.0016, -0.000100000000000003, 5e-04, 5e-04, -0.000400000000000001, -0.003525, -0.00135, -0.001975, -0.0029, -0.001025, -0.0026, -0.0035, -0.002125, 9e-04, -0.00135, 0, -0.000450000000000001, -9e-04, 0.000449999999999999, -9e-04, -9e-04, -0.000450000000000001, 0.000399999999999998, -0.001975, -0.000450000000000001, -0.000925, -0.0015, -7.50000000000004e-05, -0.0014, -0.0017, -0.000975, 9.99999999999994e-05, -0.0029, 
-9e-04, -0.0015, -0.0023, -0.000499999999999999, -0.0021, -0.0027, -0.0016, 0.0016, -0.001025, 0.000449999999999999, -7.50000000000004e-05, -0.000499999999999999, 0.001075, -0.000600000000000002, -0.000299999999999998, -2.49999999999972e-05, -0.000100000000000003, -0.0026, -9e-04, -0.0014, -0.0021, -0.000600000000000002, -0.0019, -0.0025, -0.0015, 5e-04, -0.0035, -9e-04, -0.0017, -0.0027, -0.000299999999999998, -0.0025, -0.0031, -0.0018, 5e-04, -0.002125, -0.000450000000000001, -0.000975, -0.0016, 
-2.49999999999972e-05, -0.0015, -0.0018, -0.001025),c(0.00916784158577685, 0.0293025500811932, -0.0010860418123861, 0.00294089988669154, 0.0252756083821206, 0.0131947832848635, 0.00696784158577408, 0.0618911419747901, 0.0120947832848579, 0.029302550081199, -0.0888248776807736, 0.0743535211859931, 0.0507280356335953, -0.065199392128385, 0.00567706452880237, 0.0271025500812005, -0.249803276547537, 0.00457706452880484, -0.00108604181239098, 0.0743535211859877, -0.033061867011752, -0.0179739544120672, 0.0592656085863138, 0.0140018707872836, -0.00288604181239227, 
0.183568909383726, 0.0131018707872834, 0.00294089988668949, 0.0507280356335967, -0.0179739544120718, -0.00841652726268986, 0.0411706084842127, 0.0124983270360745, 0.00114089988669213, 0.12123002567926, 0.0115983270360731, 0.0252756083821164, -0.0651993921283773, 0.0592656085863124, 0.0411706084842101, -0.0471043920262849, 0.00718060828001769, 0.0230756083821162, -0.187464392843073, 0.0060806082800166, 0.0131947832848607, 0.0056770645288045, 0.0140018707872837, 0.0124983270360746, 0.00718060828001732, 
0.011691239533648, 0.0109947832848606, -0.000447741729674492, 0.01059123953365, 0.00696784158577613, 0.0271025500811993, -0.00288604181239273, 0.0011408998866915, 0.0230756083821158, 0.0109947832848597, 0.00516784158577714, 0.0588911419747926, 0.0100947832848609, 0.0618911419747922, -0.249803276547538, 0.183568909383725, 0.121230025679256, -0.187464392843074, -0.000447741729674128, 0.0588911419747923, -0.6801754624788, -0.00194774172967342, 0.0120947832848606, 0.00457706452880459, 0.0131018707872829, 
0.011598327036073, 0.00608060828001568, 0.0105912395336503, 0.0100947832848603, -0.00194774172967378, 0.00959123953364992)
"53",9,100,1,c(0.11, 0.11, 0.09, 0.09, 0.11, 0.11, 0.09, 0.15, 0.1),c(0.0121, 0.0121, 0.0099, 0.0099, 0.0121, 0.0121, 0.0099, 0.0165, 0.011, 0.0121, 0.0121, 0.0099, 0.0099, 0.0121, 0.0121, 0.0099, 0.0165, 0.011, 0.0099, 0.0099, 0.0081, 0.0081, 0.0099, 0.0099, 0.0081, 0.0135, 0.009, 0.0099, 0.0099, 0.0081, 0.0081, 0.0099, 0.0099, 0.0081, 0.0135, 0.009, 0.0121, 0.0121, 0.0099, 0.0099, 0.0121, 0.0121, 0.0099, 0.0165, 0.011, 0.0121, 0.0121, 0.0099, 0.0099, 0.0121, 0.0121, 0.0099, 0.0165, 0.011, 0.0099, 0.0099, 0.0081, 0.0081, 0.0099, 0.0099, 0.0081, 0.0135, 0.009, 0.0165, 
0.0165, 0.0135, 0.0135, 0.0165, 0.0165, 0.0135, 0.0225, 0.015, 0.011, 0.011, 0.009, 0.009, 0.011, 0.011, 0.009, 0.015, 0.01),c(`0` = 0.005, `1` = -0.015, `2` = 0, `3` = 0.00499999999999999, `4` = -0.02, `5` = 0.02, `6` = -0.02, `7` = -0.005, `8` = -0.01),c(`0` = 0.0370087188778129, `1` = -0.0877470883586658, `2` = 0.110575574305172, `3` = 0.141764526114292, `4` = -0.118936040167786, `5` = 0.130575574305172, `6` = -0.0141802329313068, `7` = -0.234880799213384, `8` = -0.00418023293130676),c(0.001075, -0.001025, 0.000449999999999999, 0.000974999999999998, -0.00155, 0.00265, -0.00165, 0.000225000000000003, -0.000549999999999998, -0.001025, -0.003525, -0.00135, -0.000725000000000002, -0.00415, 0.00085, -0.00385, -0.002875, -0.00275, 0.000449999999999999, -0.00135, 0, 0.000449999999999999, -0.0018, 0.0018, -0.0018, -0.000449999999999999, -9e-04, 0.000974999999999998, -0.000725000000000002, 0.000449999999999999, 0.000874999999999998, -0.00115, 0.00225, -0.00125, 0.000324999999999999, -0.000350000000000001, 
-0.00155, -0.00415, -0.0018, -0.00115, -0.0048, 0.000399999999999999, -0.0044, -0.00365, -0.0033, 0.00265, 0.00085, 0.0018, 0.00225, 0.000399999999999999, 0.004, 0, 0.00255, 0.0011, -0.00165, -0.00385, -0.0018, -0.00125, -0.0044, 0, -0.004, -0.00355, -0.0031, 0.000225000000000003, -0.002875, -0.000449999999999999, 0.000324999999999999, -0.00365, 0.00255, -0.00355, -0.001525, -0.00205, -0.000549999999999998, -0.00275, -9e-04, -0.000350000000000001, -0.0033, 0.0011, -0.0031, -0.00205, -0.0021),c(0.00677227288014301, -0.002333813317481, 0.0114018375283586, 0.0136783590777655, -0.00461033486688766, 0.0136018375283588, 0.00229575133073635, -0.0115929426139161, 0.00339575133073595, -0.00233381331748162, -0.0270039109543298, 0.013968759910155, 0.020136284319367, -0.0331714353635412, 0.0161687599101549, -0.0107013377266934, -0.0596090574096031, -0.00960133772669331, 0.0114018375283592, 0.0139687599101542, 0.00767664574201246, 0.00703491514656315, 0.0146104905056028, 0.00947664574201235, 0.0102435681238084, 
0.0214191434828491, 0.0111435681238081, 0.0136783590777658, 0.0201362843193674, 0.00703491514656303, 0.00542043383616232, 0.0217507656297684, 0.00883491514656305, 0.0134928403881654, 0.0334231721817708, 0.0143928403881656, -0.00461033486688816, -0.0331714353635414, 0.0146104905056034, 0.0217507656297681, -0.0403117104877056, 0.0168104905056047, -0.0139506099910507, -0.0716130861085249, -0.0128506099910508, 0.0136018375283592, 0.016168759910155, 0.00947664574201244, 0.00883491514656309, 0.0168104905056043, 
0.0116766457420125, 0.0120435681238085, 0.0244191434828492, 0.0131435681238084, 0.00229575133073632, -0.0107013377266939, 0.0102435681238083, 0.0134928403881655, -0.0139506099910507, 0.0120435681238083, -0.00275352093362145, -0.0265969713128379, -0.0018535209336214, -0.0115929426139162, -0.0596090574096026, 0.0214191434828493, 0.0334231721817705, -0.0716130861085249, 0.0244191434828492, -0.026596971312838, -0.125633229603133, -0.0250969713128378, 0.00339575133073596, -0.00960133772669337, 0.0111435681238081, 
0.0143928403881656, -0.0128506099910509, 0.0131435681238083, -0.00185352093362137, -0.0250969713128378, -0.000853520933621295)
"54",9,100,3,c(0.11, 0.11, 0.09, 0.09, 0.11, 0.11, 0.09, 0.15, 0.1),c(0.0121, 0.0121, 0.0099, 0.0099, 0.0121, 0.0121, 0.0099, 0.0165, 0.011, 0.0121, 0.0121, 0.0099, 0.0099, 0.0121, 0.0121, 0.0099, 0.0165, 0.011, 0.0099, 0.0099, 0.0081, 0.0081, 0.0099, 0.0099, 0.0081, 0.0135, 0.009, 0.0099, 0.0099, 0.0081, 0.0081, 0.0099, 0.0099, 0.0081, 0.0135, 0.009, 0.0121, 0.0121, 0.0099, 0.0099, 0.0121, 0.0121, 0.0099, 0.0165, 0.011, 0.0121, 0.0121, 0.0099, 0.0099, 0.0121, 0.0121, 0.0099, 0.0165, 0.011, 0.0099, 0.0099, 0.0081, 0.0081, 0.0099, 0.0099, 0.0081, 0.0135, 0.009, 0.0165, 
0.0165, 0.0135, 0.0135, 0.0165, 0.0165, 0.0135, 0.0225, 0.015, 0.011, 0.011, 0.009, 0.009, 0.011, 0.011, 0.009, 0.015, 0.01),c(`0` = 0.015, `1` = -0.02, `2` = 0.00499999999999999, `3` = -0.01, `4` = -0.02, `5` = 0.025, `6` = -0.025, `7` = -0.025, `8` = 0.015),c(`0` = 0.0225973759912321, `1` = -0.0289072684035135, `2` = 0.0173129886754451, `3` = -0.00476043035087444, `4` = -0.0289072684035135, `5` = 0.0373129886754451, `6` = -0.026833849377194, `7` = -0.0551275254824722, `8` = 0.0273129886754451),c(0.003075, -0.00025, 0.001825, 0.000399999999999998, -0.00025, 0.004025, -0.001025, -0.000124999999999997, 0.002925, -0.00025, -0.0048, -0.00115, -0.0031, -0.0048, 0.00105, -0.00505, -0.00625, -4.99999999999997e-05, 0.001825, -0.00115, 0.000874999999999998, -0.000400000000000001, -0.00115, 0.002675, -0.001675, -0.001375, 0.001775, 0.000399999999999998, -0.0031, -0.000400000000000001, -0.0019, -0.0031, 0.0014, -0.0034, -0.004, 0.000499999999999999, -0.00025, -0.0048, -0.00115, -0.0031, -0.0048, 0.00105, 
-0.00505, -0.00625, -4.99999999999997e-05, 0.004025, 0.00105, 0.002675, 0.0014, 0.00105, 0.004875, 0.000124999999999998, 0.001625, 0.003775, -0.001025, -0.00505, -0.001675, -0.0034, -0.00505, 0.000124999999999998, -0.005125, -0.006625, -0.000775000000000001, -0.000124999999999997, -0.00625, -0.001375, -0.004, -0.00625, 0.001625, -0.006625, -0.008125, 0.000125, 0.002925, -4.99999999999997e-05, 0.001775, 0.000499999999999999, -4.99999999999997e-05, 0.003775, -0.000775000000000001, 0.000125, 0.002775
),c(0.00446078131638191, -4.0859752357264e-05, 0.0035469644788789, 0.00161768973513354, -4.08597523572762e-05, 0.00574696447887888, -0.000311585008611873, -0.00142868398359345, 0.00464696447887889, -4.08597523572571e-05, -0.00719522921532562, -0.000196754191509151, -0.00326291253278142, -0.00719522921532567, 0.00200324580849079, -0.00632907087405353, -0.0119937042391423, 0.000903245808490832, 0.0035469644788789, -0.000196754191509153, 0.00281659838470408, 0.00121214752596632, -0.00019675419150921, 
0.00461659838470401, -0.000392303332771411, -0.0014101067677224, 0.00371659838470403, 0.00161768973513353, -0.00326291253278141, 0.00121214752596632, -0.0008795391602829, -0.00326291253278138, 0.00301214752596629, -0.00297122584653212, -0.00593797259152899, 0.0021121475259663, -4.08597523572779e-05, -0.00719522921532568, -0.000196754191509206, -0.00326291253278138, -0.00719522921532571, 0.00200324580849083, -0.00632907087405355, -0.0119937042391423, 0.000903245808490827, 0.00574696447887888, 0.00200324580849079, 
0.00461659838470401, 0.00301214752596629, 0.00200324580849082, 0.00681659838470403, 0.00140769666722857, 0.00158989323227763, 0.00571659838470403, -0.000311585008611889, -0.00632907087405354, -0.00039230333277142, -0.00297122584653213, -0.00632907087405355, 0.00140769666722857, -0.00555014836029285, -0.0104658384153357, 0.000507696667228569, -0.00142868398359344, -0.0119937042391423, -0.00141010676772238, -0.00593797259152897, -0.0119937042391423, 0.00158989323227764, -0.0104658384153357, -0.0195773017105622, 
8.98932322776387e-05, 0.00464696447887888, 0.000903245808490818, 0.00371659838470404, 0.00211214752596631, 0.000903245808490818, 0.00571659838470403, 0.000507696667228569, 8.98932322776318e-05, 0.00471659838470404)
"55",9,100,5,c(0.11, 0.11, 0.09, 0.09, 0.11, 0.11, 0.09, 0.15, 0.1),c(0.0121, 0.0121, 0.0099, 0.0099, 0.0121, 0.0121, 0.0099, 0.0165, 0.011, 0.0121, 0.0121, 0.0099, 0.0099, 0.0121, 0.0121, 0.0099, 0.0165, 0.011, 0.0099, 0.0099, 0.0081, 0.0081, 0.0099, 0.0099, 0.0081, 0.0135, 0.009, 0.0099, 0.0099, 0.0081, 0.0081, 0.0099, 0.0099, 0.0081, 0.0135, 0.009, 0.0121, 0.0121, 0.0099, 0.0099, 0.0121, 0.0121, 0.0099, 0.0165, 0.011, 0.0121, 0.0121, 0.0099, 0.0099, 0.0121, 0.0121, 0.0099, 0.0165, 0.011, 0.0099, 0.0099, 0.0081, 0.0081, 0.0099, 0.0099, 0.0081, 0.0135, 0.009, 0.0165, 
0.0165, 0.0135, 0.0135, 0.0165, 0.0165, 0.0135, 0.0225, 0.015, 0.011, 0.011, 0.009, 0.009, 0.011, 0.011, 0.009, 0.015, 0.01),c(`0` = 0.015, `1` = -0.02, `2` = 0.01, `3` = 0, `4` = -0.015, `5` = 0.02, `6` = -0.02, `7` = -0.025, `8` = -0.00499999999999999),c(`0` = 0.0159836299614141, `1` = -0.0211532213340717, `2` = 0.0118994233737652, `3` = 0.0012888944321978, `4` = -0.015847956863288, `5` = 0.0212888944321978, `6` = -0.019932163450937, `7` = -0.0289006015711249, `8` = -0.00462689898015327),c(0.003075, -0.00025, 0.0023, 0.00135, 0.000225, 0.00355, -0.000550000000000002, -0.000124999999999997, 0.001025, -0.00025, -0.0048, -0.000500000000000002, -0.0018, -0.00415, 0.000399999999999999, -0.0044, -0.00625, -0.00265, 0.0023, -0.000500000000000002, 0.0017, 9e-04, -0.000100000000000001, 0.0027, -0.000700000000000001, -0.000499999999999999, 6e-04, 0.00135, -0.0018, 9e-04, 0, -0.00135, 0.0018, -0.0018, -0.00225, -0.000450000000000001, 0.000225, -0.00415, -0.000100000000000001, -0.00135, -0.003525, 
0.00085, -0.00385, -0.005375, -0.002125, 0.00355, 0.000399999999999999, 0.0027, 0.0018, 0.00085, 0.004, 0, 0.000750000000000001, 0.00155, -0.000550000000000002, -0.0044, -0.000700000000000001, -0.0018, -0.00385, 0, -0.004, -0.00575, -0.00255, -0.000124999999999997, -0.00625, -0.000499999999999999, -0.00225, -0.005375, 0.000750000000000001, -0.00575, -0.008125, -0.003375, 0.001025, -0.00265, 6e-04, -0.000450000000000001, -0.002125, 0.00155, -0.00255, -0.003375, -0.001025),c(0.00326092216476764, -0.000230549788696697, 0.00255726728768095, 0.00155970387240543, 0.000268231918941113, 0.00375970387240543, -0.000435422958145606, -0.000319585157436485, 0.00116335874949216, -0.000230549788696697, -0.00510116746630401, -0.00034314221257925, -0.00173474726332414, -0.00440536494093153, 0.000465252736675839, -0.00451795736481408, -0.00696339019465636, -0.0027221548394416, 0.00255726728768095, -0.00034314221257925, 0.00200029993064962, 0.00117161150200386, 7.12020017436862e-05, 
0.00297161150200384, -0.000485765355287689, -0.000472240141485144, 0.000828578859035208, 0.00155970387240543, -0.00173474726332414, 0.00117161150200386, 0.000230339748938236, -0.00126411138679135, 0.00203033974893825, -0.00165220375719296, -0.00237047015211939, -0.000281567880660159, 0.000268231918941113, -0.00440536494093152, 7.12020017436879e-05, -0.00126411138679135, -0.00373770824666399, 0.000935888613208643, -0.00393473816386147, -0.0060142751893392, -0.00216708146959393, 0.00375970387240544, 
0.000465252736675841, 0.00297161150200384, 0.00203033974893825, 0.000935888613208643, 0.00423033974893825, 0.000147796242807037, 0.00062952984788062, 0.00171843211933984, -0.000435422958145604, -0.00451795736481409, -0.000485765355287686, -0.00165220375719296, -0.00393473816386146, 0.000147796242807039, -0.00398508056100352, -0.00616693017338786, -0.00250186136005088, -0.000319585157436488, -0.00696339019465633, -0.000472240141485128, -0.00237047015211938, -0.0060142751893392, 0.00062952984788062, 
-0.00616693017338786, -0.00950542524251036, -0.00371781516807073, 0.00116335874949216, -0.00272215483944159, 0.000828578859035213, -0.000281567880660158, -0.00216708146959393, 0.00171843211933985, -0.00250186136005088, -0.00371781516807073, -0.000946787990203191)
"56",9,500,0.05,c(0.11, 0.11, 0.09, 0.09, 0.11, 0.11, 0.09, 0.15, 0.1),c(0.0121, 0.0121, 0.0099, 0.0099, 0.0121, 0.0121, 0.0099, 0.0165, 0.011, 0.0121, 0.0121, 0.0099, 0.0099, 0.0121, 0.0121, 0.0099, 0.0165, 0.011, 0.0099, 0.0099, 0.0081, 0.0081, 0.0099, 0.0099, 0.0081, 0.0135, 0.009, 0.0099, 0.0099, 0.0081, 0.0081, 0.0099, 0.0099, 0.0081, 0.0135, 0.009, 0.0121, 0.0121, 0.0099, 0.0099, 0.0121, 0.0121, 0.0099, 0.0165, 0.011, 0.0121, 0.0121, 0.0099, 0.0099, 0.0121, 0.0121, 0.0099, 0.0165, 0.011, 0.0099, 0.0099, 0.0081, 0.0081, 0.0099, 0.0099, 0.0081, 0.0135, 0.009, 0.0165, 
0.0165, 0.0135, 0.0135, 0.0165, 0.0165, 0.0135, 0.0225, 0.015, 0.011, 0.011, 0.009, 0.009, 0.011, 0.011, 0.009, 0.015, 0.01),c(`0` = 0.00600000000000001, `1` = -0.005, `2` = -0.022, `3` = 0.017, `4` = -0.025, `5` = -0.00799999999999999, `6` = 0, `7` = 0.011, `8` = -0.014),c(`0` = 1.25426665555621, `1` = -0.687645827257304, `2` = -0.178033331944528, `3` = 6.70692910712156, `4` = -4.21839579600914, `5` = -1.21725832257008, `6` = 3.7057916336825, `7` = -4.88454578975951, `8` = -0.521108328819712),c(0.001284, 0.000139999999999999, -0.001748, 0.002308, -0.00194, -0.000171999999999999, 0.000540000000000001, 0.002044, -0.000855999999999999, 0.000139999999999999, -0.001125, -0.00298, 0.001505, -0.003425, -0.00147, -0.000450000000000001, 0.000514999999999998, -0.00211, -0.001748, -0.00298, -0.004444, -7.59999999999997e-05, -0.00522, -0.003316, -0.00198, -0.002068, -0.003768, 0.002308, 0.001505, -7.59999999999997e-05, 0.002771, 4.49999999999999e-05, 0.001286, 0.00153, 0.003353, 0.000678, -0.00194, 
-0.003425, -0.00522, 4.49999999999999e-05, -0.006125, -0.00383, -0.00225, -0.002265, -0.00439, -0.000171999999999999, -0.00147, -0.003316, 0.001286, -0.00383, -0.001824, -0.00072, 9.80000000000009e-05, -0.002452, 0.000540000000000001, -0.000450000000000001, -0.00198, 0.00153, -0.00225, -0.00072, 0, 0.00099, -0.00126, 0.002044, 0.000514999999999998, -0.002068, 0.003353, -0.002265, 9.80000000000009e-05, 0.00099, 0.00317899999999999, -0.000846000000000003, -0.000855999999999999, -0.00211, -0.003768, 
0.000678, -0.00439, -0.002452, -0.00126, -0.000846000000000003, -0.002996),c(-1.29724617901876, 0.924819523073427, 0.316601604320496, -7.56163133945911, 4.9649389814232, 1.53083744182746, -4.1275297998626, 5.77736287309422, 0.721713550157728, 0.92481952307415, -0.624138865741094, -0.203895668791962, 5.28786589155324, -3.44042684540482, -1.04658206269052, 2.89402110883885, -3.99928444133772, -0.484424466757541, 0.316601604321539, -0.203895668790837, -0.0637418670329921, 1.78165755582271, -1.15025434717929, -0.345849470549739, 0.977252679192643, -1.33592608285637, -0.157477734872309, 
-7.56163133945866, 5.28786589155312, 1.78165755582282, -43.7756508086753, 28.6505881297576, 8.79227422728347, -23.9173369062019, 33.326732577398, 4.11882977964255, 4.96493898142281, -3.44042684540493, -1.15025434717929, 28.6505881297573, -18.7229101669108, -5.73279934363067, 15.6604773064782, -21.7750068312121, -2.6774026793296, 1.53083744182657, -1.04658206269064, -0.34584947054931, 8.79227422728363, -5.73279934363064, -1.74951465483177, 4.8089895384845, -6.66564279981883, -0.813371198643533, -4.12752979986199, 
2.89402110883871, 0.977252679193341, -23.917336906202, 15.6604773064776, 4.8089895384844, -13.0658491382096, 18.2173685460052, 2.25479829895684, 5.77736287309282, -3.99928444133785, -1.33592608285684, 33.3267325773979, -21.7750068312121, -6.66564279981868, 18.2173685460054, -25.3241513091866, -3.11199832184371, 0.721713550156704, -0.484424466757719, -0.157477734872096, 4.11882977964297, -2.67740267932966, -0.813371198643533, 2.25479829895683, -3.11199832184398, -0.37577555612909)
"57",9,500,0.5,c(0.11, 0.11, 0.09, 0.09, 0.11, 0.11, 0.09, 0.15, 0.1),c(0.0121, 0.0121, 0.0099, 0.0099, 0.0121, 0.0121, 0.0099, 0.0165, 0.011, 0.0121, 0.0121, 0.0099, 0.0099, 0.0121, 0.0121, 0.0099, 0.0165, 0.011, 0.0099, 0.0099, 0.0081, 0.0081, 0.0099, 0.0099, 0.0081, 0.0135, 0.009, 0.0099, 0.0099, 0.0081, 0.0081, 0.0099, 0.0099, 0.0081, 0.0135, 0.009, 0.0121, 0.0121, 0.0099, 0.0099, 0.0121, 0.0121, 0.0099, 0.0165, 0.011, 0.0121, 0.0121, 0.0099, 0.0099, 0.0121, 0.0121, 0.0099, 0.0165, 0.011, 0.0099, 0.0099, 0.0081, 0.0081, 0.0099, 0.0099, 0.0081, 0.0135, 0.009, 0.0165, 
0.0165, 0.0135, 0.0135, 0.0165, 0.0165, 0.0135, 0.0225, 0.015, 0.011, 0.011, 0.009, 0.009, 0.011, 0.011, 0.009, 0.015, 0.01),c(`0` = 0.001, `1` = -0.005, `2` = -0.013, `3` = 0.014, `4` = -0.019, `5` = -0.00600000000000001, `6` = -0.00800000000000001, `7` = 0.00600000000000001, `8` = -0.01),c(`0` = 0.0302883875681992, `1` = -0.058952292888788, `2` = 0.0995290680251864, `3` = 0.501112130081628, `4` = -0.267180547288425, `5` = -0.0738257396316192, `6` = 0.173896301739342, `7` = -0.450282248430892, `8` = 0.005414940825368),c(0.000219, -0.000435000000000001, -0.001327, 0.001616, -0.001961, -0.000544000000000001, -0.000782000000000001, 0.000804000000000003, -0.00099, -0.000435000000000001, -0.001125, -0.001945, 0.00116, -0.002735, -0.00124, -0.00137, -5.99999999999976e-05, -0.00165, -0.001327, -0.001945, -0.002509, 0.000272, -0.003387, -0.002048, -0.001994, -0.001332, -0.00233, 0.001616, 0.00116, 0.000272, 0.002324, 9.59999999999989e-05, 0.001084, 0.000652, 0.002556, 0.00064, -0.001961, -0.002735, -0.003387, 9.59999999999989e-05, 
-0.004541, -0.002864, -0.002742, -0.002076, -0.00319, -0.000544000000000001, -0.00124, -0.002048, 0.001084, -0.002864, -0.001356, -0.001468, -0.000203999999999999, -0.00176, -0.000782000000000001, -0.00137, -0.001994, 0.000652, -0.002742, -0.001468, -0.001504, -0.000612, -0.00178, 0.000804000000000003, -5.99999999999976e-05, -0.001332, 0.002556, -0.002076, -0.000203999999999999, -0.000612, 0.001764, -0.00084, -0.00099, -0.00165, -0.00233, 0.00064, -0.00319, -0.00176, -0.00178, -0.00084, -0.0021),c(0.00574605884352287, -0.0013674596902218, 0.0106595773772675, 0.0426704107790792, -0.0179656696022642, -0.00255304611250204, 0.0165875094887053, -0.0313494659366153, 0.00346047242122976, -0.00136745969021601, -0.0164448772723776, 0.0115099578919528, 0.0793583370116855, -0.0516255182974323, -0.0189577802027416, 0.0240744725437521, -0.0849190622528358, -0.00498036262057564, 0.0106595773772622, 0.0115099578919467, 0.00800919686256443, 0.0041824845464753, 0.0134941790928888, 0.01165168797773, 0.00730054643366453, 
0.0192201303796115, 0.00990130746304148, 0.0426704107790774, 0.0793583370116863, 0.00418248454647039, -0.160913183500255, 0.164963498221097, 0.0854729913837881, -0.0263907873140318, 0.260283313802615, 0.0478850651511808, -0.0179656696022677, -0.0516255182974243, 0.0134941790928875, 0.164963498221094, -0.1301651652528, -0.0572354930799516, 0.0415440530055214, -0.209914786990691, -0.0246756443847951, -0.00255304611250515, -0.01895778020274, 0.0116516879777304, 0.0854729913837876, -0.0572354930799522, 
-0.0216919025511137, 0.025322299719592, -0.0938473283055406, -0.00638716846087684, 0.0165875094887081, 0.0240744725437511, 0.00730054643366401, -0.0263907873140322, 0.041544053005521, 0.0253222997195907, 0.00106141055446189, 0.0638614606431286, 0.0169353366645486, -0.0313494659366126, -0.0849190622528368, 0.0192201303796107, 0.260283313802612, -0.209914786990691, -0.0938473283055402, 0.0638614606431289, -0.337838777781247, -0.0417777319893172, 0.00346047242123253, -0.00498036262057609, 0.00990130746304093, 
0.0478850651511803, -0.0246756443847968, -0.00638716846087654, 0.0169353366645484, -0.0417777319893175, 0.0010536665809313)
"58",9,500,1,c(0.11, 0.11, 0.09, 0.09, 0.11, 0.11, 0.09, 0.15, 0.1),c(0.0121, 0.0121, 0.0099, 0.0099, 0.0121, 0.0121, 0.0099, 0.0165, 0.011, 0.0121, 0.0121, 0.0099, 0.0099, 0.0121, 0.0121, 0.0099, 0.0165, 0.011, 0.0099, 0.0099, 0.0081, 0.0081, 0.0099, 0.0099, 0.0081, 0.0135, 0.009, 0.0099, 0.0099, 0.0081, 0.0081, 0.0099, 0.0099, 0.0081, 0.0135, 0.009, 0.0121, 0.0121, 0.0099, 0.0099, 0.0121, 0.0121, 0.0099, 0.0165, 0.011, 0.0121, 0.0121, 0.0099, 0.0099, 0.0121, 0.0121, 0.0099, 0.0165, 0.011, 0.0099, 0.0099, 0.0081, 0.0081, 0.0099, 0.0099, 0.0081, 0.0135, 0.009, 0.0165, 
0.0165, 0.0135, 0.0135, 0.0165, 0.0165, 0.0135, 0.0225, 0.015, 0.011, 0.011, 0.009, 0.009, 0.011, 0.011, 0.009, 0.015, 0.01),c(`0` = 0.00700000000000001, `1` = -0.013, `2` = -0.021, `3` = 0.011, `4` = -0.024, `5` = 0.005, `6` = 0.00599999999999999, `7` = 0.002, `8` = -0.013),c(`0` = 0.0494842996014608, `1` = -0.0752715076350179, `2` = -0.0204180232931307, `3` = 0.179191268285235, `4` = -0.143887201615081, `5` = 0.0370087188778129, `6` = 0.148002316476116, `7` = -0.191216266680616, `8` = -0.0228936040167786),c(0.001491, -0.000569, -0.001533, 0.001763, -0.001702, 0.001285, 0.001248, 0.001256, -0.000638999999999999, -0.000569, -0.003029, -0.003753, 0.000182999999999999, -0.004382, -0.000815, -0.000432000000000002, -0.001704, -0.002899, -0.001533, -0.003753, -0.004221, -0.000669000000000001, -0.004974, -0.001755, -0.001224, -0.002928, -0.003543, 0.001763, 0.000182999999999999, -0.000669000000000001, 0.001859, -0.000686000000000001, 0.001605, 0.001464, 0.001808, 7.29999999999984e-05, -0.001702, -0.004382, 
-0.004974, -0.000686000000000001, -0.005856, -0.00197, -0.001356, -0.003332, -0.004142, 0.001285, -0.000815, -0.001755, 0.001605, -0.00197, 0.001075, 0.00108, 0.000960000000000003, -0.000864999999999999, 0.001248, -0.000432000000000002, -0.001224, 0.001464, -0.001356, 0.00108, 0.001044, 0.001068, -0.000492000000000001, 0.001256, -0.001704, -0.002928, 0.001808, -0.003332, 0.000960000000000003, 0.001068, 0.000596000000000003, -0.001724, -0.000638999999999999, -0.002899, -0.003543, 7.29999999999984e-05, 
-0.004142, -0.000864999999999999, -0.000492000000000001, -0.001724, -0.002769),c(0.00843785000527541, 0.000888164951573907, 0.0032179759837934, 0.0152974720697155, -0.00326416182796225, 0.00768288149990385, 0.0134100508062901, -0.00414894136555231, 0.0035630074784239, 0.000888164951573392, -0.0222255315413523, -0.0105573136455971, 0.0264246007430846, -0.0349380646124607, -0.00142320469771927, 0.0206461766198535, -0.0467176521575099, -0.0117686832948892, 0.00321797598379413, -0.0105573136455979, -0.00409213986796211, 0.0179483235390627, -0.0181337229417634, 0.00184044702085495, 
0.0145045011317153, -0.0241764256823353, -0.00456966883090159, 0.0152974720697158, 0.0264246007430849, 0.0179483235390626, 0.00014491766167072, 0.0325445215134389, 0.0164101849370517, 0.00292669983001354, 0.0439335115847973, 0.0199610364064, -0.00326416182796277, -0.0349380646124611, -0.0181337229417628, 0.0325445215134386, -0.0523587111439367, -0.00643155210641128, 0.0246260458173134, -0.0701304430930871, -0.0202011132202117, 0.00768288149990423, -0.0014232046977192, 0.00184044702085497, 0.0164101849370517, 
-0.00643155210641164, 0.00677227288014207, 0.0141336633876465, -0.00840581244474784, 0.00202983840109261, 0.0134100508062901, 0.0206461766198531, 0.0145045011317153, 0.00292669983001352, 0.0246260458173134, 0.0141336633876463, 0.00473573128340446, 0.0332913338868078, 0.0161281137130717, -0.00414894136555233, -0.0467176521575097, -0.0241764256823352, 0.0439335115847971, -0.0701304430930872, -0.00840581244474786, 0.0332913338868076, -0.0939285406474575, -0.0269332967615311, 0.0035630074784238, -0.0117686832948893, 
-0.00456966883090154, 0.0199610364063999, -0.0202011132202118, 0.00202983840109258, 0.0161281137130716, -0.0269332967615312, -0.00510283790823274)
"59",9,500,3,c(0.11, 0.11, 0.09, 0.09, 0.11, 0.11, 0.09, 0.15, 0.1),c(0.0121, 0.0121, 0.0099, 0.0099, 0.0121, 0.0121, 0.0099, 0.0165, 0.011, 0.0121, 0.0121, 0.0099, 0.0099, 0.0121, 0.0121, 0.0099, 0.0165, 0.011, 0.0099, 0.0099, 0.0081, 0.0081, 0.0099, 0.0099, 0.0081, 0.0135, 0.009, 0.0099, 0.0099, 0.0081, 0.0081, 0.0099, 0.0099, 0.0081, 0.0135, 0.009, 0.0121, 0.0121, 0.0099, 0.0099, 0.0121, 0.0121, 0.0099, 0.0165, 0.011, 0.0121, 0.0121, 0.0099, 0.0099, 0.0121, 0.0121, 0.0099, 0.0165, 0.011, 0.0099, 0.0099, 0.0081, 0.0081, 0.0099, 0.0099, 0.0081, 0.0135, 0.009, 0.0165, 
0.0165, 0.0135, 0.0135, 0.0165, 0.0165, 0.0135, 0.0225, 0.015, 0.011, 0.011, 0.009, 0.009, 0.011, 0.011, 0.009, 0.015, 0.01),c(`0` = 0, `1` = -0.012, `2` = -0.019, `3` = 0.019, `4` = -0.021, `5` = -0.003, `6` = -0.003, `7` = 0.005, `8` = -0.00599999999999999),c(`0` = 0.000523956964912559, `1` = -0.0171347782561431, `2` = -0.0180044817666661, `3` = 0.0379148464333434, `4` = -0.0303788296719349, `5` = -0.00389072684035136, `6` = 0.00554049852807471, `7` = -0.0109806874298331, `8` = -0.00358979796140221),c(0, -0.00132, -0.00209, 0.00209, -0.00231, -0.00033, -0.00033, 0.000550000000000002, -0.000659999999999999, -0.00132, -0.002784, -0.003398, 0.001238, -0.003882, -0.001686, -0.001446, -0.00119, -0.001932, -0.00209, -0.003398, -0.003781, 0.000361, -0.004379, -0.002417, -0.002037, -0.002305, -0.002554, 0.00209, 0.001238, 0.000361, 0.003059, 0.000598999999999999, 0.001877, 0.001497, 0.003205, 0.001474, -0.00231, -0.003882, -0.004379, 0.000598999999999999, -0.005061, -0.002703, -0.002283, -0.002495, 
-0.002886, -0.00033, -0.001686, -0.002417, 0.001877, -0.002703, -0.000669000000000001, -0.000609000000000002, 0.000115000000000001, -0.000978, -0.00033, -0.001446, -0.002037, 0.001497, -0.002283, -0.000609000000000002, -0.000549000000000001, 1.50000000000011e-05, -0.000858000000000001, 0.000550000000000002, -0.00119, -0.002305, 0.003205, -0.002495, 0.000115000000000001, 1.50000000000011e-05, 0.001475, -0.000369999999999999, -0.000659999999999999, -0.001932, -0.002554, 0.001474, -0.002886, -0.000978, 
-0.000858000000000001, -0.000369999999999999, -0.001236),c(0.000114996001379607, -0.00181821245562579, -0.00192390329386984, 0.00419792348664761, -0.00326811879837993, -0.000368306112871702, 0.0006537079821375, -0.00112352866488635, -0.000340601179618486, -0.00181821245562578, -0.00406325184223857, -0.00383112584007474, 0.00327816555086591, -0.00574703138219826, -0.00237947230227909, -0.000837739991257596, -0.00396624399991333, -0.00216986599342154, -0.00192390329386984, -0.00383112584007474, -0.00356496808168603, 0.00247456998129606, -0.00526154274972849, 
-0.00240070893042111, -0.00102200468674625, -0.00388663572030082, -0.0021881624451349, 0.0041979234866476, 0.00327816555086591, 0.00247456998129606, 0.00538713677793781, 0.00258834709902973, 0.00396798400270215, 0.00370091389567152, 0.00511529617395121, 0.00360450946524144, -0.00326811879837992, -0.00574703138219826, -0.00526154274972847, 0.00258834709902973, -0.00760621582006206, -0.00388784694433454, -0.00195632597130393, -0.00609828050118353, -0.00354181460377383, -0.000368306112871692, -0.00237947230227909, 
-0.0024007089304211, 0.00396798400270216, -0.00388784694433456, -0.000871097660223521, 0.000280845988788704, -0.00183420749864311, -0.000797917383069257, 0.000653707982137491, -0.000837739991257604, -0.00102200468674625, 0.00370091389567152, -0.00195632597130393, 0.000280845988788704, 0.000966592611113841, -9.63486069315272e-05, 0.000250857306602506, -0.00112352866488636, -0.00396624399991333, -0.00388663572030081, 0.00511529617395122, -0.00609828050118352, -0.0018342074986431, -9.63486069315306e-05, 
-0.0034147817253816, -0.00167595688654405, -0.000340601179618481, -0.00216986599342154, -0.00218816244513489, 0.00360450946524144, -0.00354181460377384, -0.00079791738306925, 0.000250857306602504, -0.00167595688654404, -0.000730846241684133)
"60",9,500,5,c(0.11, 0.11, 0.09, 0.09, 0.11, 0.11, 0.09, 0.15, 0.1),c(0.0121, 0.0121, 0.0099, 0.0099, 0.0121, 0.0121, 0.0099, 0.0165, 0.011, 0.0121, 0.0121, 0.0099, 0.0099, 0.0121, 0.0121, 0.0099, 0.0165, 0.011, 0.0099, 0.0099, 0.0081, 0.0081, 0.0099, 0.0099, 0.0081, 0.0135, 0.009, 0.0099, 0.0099, 0.0081, 0.0081, 0.0099, 0.0099, 0.0081, 0.0135, 0.009, 0.0121, 0.0121, 0.0099, 0.0099, 0.0121, 0.0121, 0.0099, 0.0165, 0.011, 0.0121, 0.0121, 0.0099, 0.0099, 0.0121, 0.0121, 0.0099, 0.0165, 0.011, 0.0099, 0.0099, 0.0081, 0.0081, 0.0099, 0.0099, 0.0081, 0.0135, 0.009, 0.0165, 
0.0165, 0.0135, 0.0135, 0.0165, 0.0165, 0.0135, 0.0225, 0.015, 0.011, 0.011, 0.009, 0.009, 0.011, 0.011, 0.009, 0.015, 0.01),c(`0` = 0.001, `1` = -0.005, `2` = -0.017, `3` = 0.018, `4` = -0.021, `5` = -0.005, `6` = -0.002, `7` = 0.002, `8` = -0.011),c(`0` = 0.00112888944321977, `1` = -0.00523742792172066, `2` = -0.0167490047684667, `3` = 0.0203878465270191, `4` = -0.0222142742282285, `5` = -0.00523742792172066, `6` = -0.000833211356115679, `7` = -0.000252173428892999, `8` = -0.0109932163450937),c(0.000219, -0.000435000000000001, -0.001763, 0.002052, -0.002179, -0.000435000000000001, -0.000128000000000001, 0.000368, -0.001099, -0.000435000000000001, -0.001125, -0.002405, 0.00162, -0.002965, -0.001125, -0.000680000000000002, -0.00052, -0.001765, -0.001763, -0.002405, -0.003349, 0.000396000000000001, -0.004117, -0.002405, -0.001744, -0.002336, -0.002877, 0.002052, 0.00162, 0.000396000000000001, 0.002916, 0.000468, 0.00162, 0.001476, 0.002844, 0.001008, -0.002179, -0.002965, -0.004117, 0.000468, 
-0.005061, -0.002965, -0.002152, -0.002888, -0.003541, -0.000435000000000001, -0.001125, -0.002405, 0.00162, -0.002965, -0.001125, -0.000680000000000002, -0.00052, -0.001765, -0.000128000000000001, -0.000680000000000002, -0.001744, 0.001476, -0.002152, -0.000680000000000002, -0.000364, -0.000116, -0.001212, 0.000368, -0.00052, -0.002336, 0.002844, -0.002888, -0.00052, -0.000116, 0.000596000000000003, -0.001428, -0.001099, -0.001765, -0.002877, 0.001008, -0.003541, -0.001765, -0.001212, -0.001428, 
-0.002321),c(0.000247081286133278, -0.00044602675554469, -0.00172188269997404, 0.00232124754314753, -0.00229431486668592, -0.000446026755544664, 1.08874042209425e-05, 0.000141879015226484, -0.00108395472775933, -0.000446026755544691, -0.00117966479401375, -0.00240148074272165, 0.00187807448168163, -0.00313603289659807, -0.00117966479401376, -0.000567385646548794, -0.000814674005593957, -0.00179057276836767, -0.00172188269997403, -0.00240148074272165, -0.00329535001905814, 0.000668971896969527, -0.00421374219004851, 
-0.00240148074272163, -0.00159635491218915, -0.00253926997783339, -0.00284841538088986, 0.00232124754314753, 0.00187807448168163, 0.00066897189696953, 0.00325414808885414, 0.000696279651105792, 0.0018780744816816, 0.00177690455063436, 0.00304062264361896, 0.00127352318932556, -0.00229431486668592, -0.00313603289659807, -0.00421374219004851, 0.000696279651105792, -0.0053806143096972, -0.00313603289659808, -0.00210944711526813, -0.003365482061115, -0.00367488754332332, -0.000446026755544653, -0.00117966479401376, 
-0.00240148074272162, 0.00187807448168161, -0.00313603289659808, -0.00117966479401377, -0.000567385646548799, -0.000814674005593936, -0.00179057276836768, 1.08874042209443e-05, -0.000567385646548797, -0.00159635491218915, 0.00177690455063436, -0.00210944711526812, -0.000567385646548799, -0.000150672285264778, -0.000147887425782384, -0.00108187027936897, 0.000141879015226477, -0.000814674005593943, -0.00253926997783338, 0.00304062264361896, -0.00336548206111501, -0.000814674005593936, -0.000147887425782384, 
-7.57156201061371e-05, -0.00167697199171366, -0.00108395472775932, -0.00179057276836767, -0.00284841538088986, 0.00127352318932556, -0.00367488754332332, -0.00179057276836768, -0.00108187027936897, -0.00167697199171365, -0.00231949407462877)
"61",9,1000,0.05,c(0.11, 0.11, 0.09, 0.09, 0.11, 0.11, 0.09, 0.15, 0.1),c(0.0121, 0.0121, 0.0099, 0.0099, 0.0121, 0.0121, 0.0099, 0.0165, 0.011, 0.0121, 0.0121, 0.0099, 0.0099, 0.0121, 0.0121, 0.0099, 0.0165, 0.011, 0.0099, 0.0099, 0.0081, 0.0081, 0.0099, 0.0099, 0.0081, 0.0135, 0.009, 0.0099, 0.0099, 0.0081, 0.0081, 0.0099, 0.0099, 0.0081, 0.0135, 0.009, 0.0121, 0.0121, 0.0099, 0.0099, 0.0121, 0.0121, 0.0099, 0.0165, 0.011, 0.0121, 0.0121, 0.0099, 0.0099, 0.0121, 0.0121, 0.0099, 0.0165, 0.011, 0.0099, 0.0099, 0.0081, 0.0081, 0.0099, 0.0099, 0.0081, 0.0135, 0.009, 0.0165, 
0.0165, 0.0135, 0.0135, 0.0165, 0.0165, 0.0135, 0.0225, 0.015, 0.011, 0.011, 0.009, 0.009, 0.011, 0.011, 0.009, 0.015, 0.01),c(`0` = -0.01, `1` = 0.0025, `2` = -0.01, `3` = -0.00950000000000001, `4` = 0.0155, `5` = -0.0115, `6` = -0.016, `7` = 0.00650000000000001, `8` = -0.00749999999999999),c(`0` = -1.57033331944526, `1` = 0.636385411024637, `2` = 1.94041664930658, `3` = 2.02868539852537, `4` = 2.93137289071333, `5` = -1.83513956710165, `6` = 0.881191658681025, `7` = -5.67896453272867, `8` = 0.626385411024637),c(-0.0023, -8e-04, -0.0021, -0.00204, 0.00076, -0.00248, -0.00282, -0.000719999999999998, -0.0019, -8e-04, 0.000543750000000001, -0.000850000000000002, -0.000796250000000002, 0.00194125, -0.00096125, -0.001495, 0.00107375, -0.000556249999999998, -0.0021, -0.000850000000000002, -0.0019, -0.00185, 0.000449999999999999, -0.00225, -0.0025, -0.00085, -0.00175, -0.00204, -0.000796250000000002, -0.00185, -0.00180025, 0.000497249999999998, -0.00218925, -0.002447, -0.000778249999999999, -0.00169625, 0.00076, 
0.00194125, 0.000449999999999999, 0.000497249999999998, 0.00316975, 0.000618249999999999, -0.000117000000000001, 0.00293925, 0.000841250000000002, -0.00248, -0.00096125, -0.00225, -0.00218925, 0.000618249999999999, -0.00266225, -0.002979, -0.000935249999999999, -0.00206125, -0.00282, -0.001495, -0.0025, -0.002447, -0.000117000000000001, -0.002979, -0.003136, -0.001711, -0.002395, -0.000719999999999998, 0.00107375, -0.00085, -0.000778249999999999, 0.00293925, -0.000935249999999999, -0.001711, 0.00190775, 
-0.00042625, -0.0019, -0.000556249999999998, -0.00175, -0.00169625, 0.000841250000000002, -0.00206125, -0.002395, -0.00042625, -0.00155625),c(-2.81142006443923, 0.896602945013861, 3.11921675068497, 3.26753767106439, 4.75294687484535, -3.25638282557139, 1.33936570614857, -9.77810332220776, 0.895502945015797, 0.896602945014557, -0.264981600939668, -0.964132328512592, -1.01059571035018, -1.47302952873188, 1.03599309052916, -0.40657174645414, 3.0847818914085, -0.266081600939262, 3.11921675068619, -0.964132328511597, -3.41594177603104, -3.57927573919899, -5.21081537087858, 3.60921864018991, -1.45593421801637, 10.7995130195794, -0.9650323285125, 
3.26753767106429, -1.01059571035061, -3.57927573919913, -3.75040107445557, -5.45985442702165, 3.780913676834, -1.52577171611957, 11.3140284281241, -1.01149571035066, 4.75294687484537, -1.47302952873195, -5.21081537087837, -5.45985442702167, -7.94804498845258, 5.50006404327478, -2.22234669716076, 16.4621825135708, -1.47412952873228, -3.25638282557222, 1.0359930905291, 3.60921864019036, 3.78091367683388, 5.50006404327491, -3.77146793550473, 1.5488782004612, -11.3216495478434, 1.03489309052924, 1.33936570614919, 
-0.406571746454222, -1.45593421801585, -1.52577171612013, -2.2223466971614, 1.54887820046122, -0.617884240766644, 4.62532811704304, -0.407471746454143, -9.77810332220926, 3.08478189140856, 10.7995130195792, 11.3140284281238, 16.4621825135713, -11.3216495478433, 4.62532811704276, -33.9543275238107, 3.08328189140906, 0.895502945014724, -0.266081600939439, -0.965032328512152, -1.01149571035037, -1.47412952873207, 1.03489309052921, -0.407471746454199, 3.08328189140863, -0.267081600939539)
"62",9,1000,0.5,c(0.11, 0.11, 0.09, 0.09, 0.11, 0.11, 0.09, 0.15, 0.1),c(0.0121, 0.0121, 0.0099, 0.0099, 0.0121, 0.0121, 0.0099, 0.0165, 0.011, 0.0121, 0.0121, 0.0099, 0.0099, 0.0121, 0.0121, 0.0099, 0.0165, 0.011, 0.0099, 0.0099, 0.0081, 0.0081, 0.0099, 0.0099, 0.0081, 0.0135, 0.009, 0.0099, 0.0099, 0.0081, 0.0081, 0.0099, 0.0099, 0.0081, 0.0135, 0.009, 0.0121, 0.0121, 0.0099, 0.0099, 0.0121, 0.0121, 0.0099, 0.0165, 0.011, 0.0121, 0.0121, 0.0099, 0.0099, 0.0121, 0.0121, 0.0099, 0.0165, 0.011, 0.0099, 0.0099, 0.0081, 0.0081, 0.0099, 0.0099, 0.0081, 0.0135, 0.009, 0.0165, 
0.0165, 0.0135, 0.0135, 0.0165, 0.0165, 0.0135, 0.0225, 0.015, 0.011, 0.011, 0.009, 0.009, 0.011, 0.011, 0.009, 0.015, 0.01),c(`0` = -0.012, `1` = 0.00600000000000001, `2` = -0.002, `3` = -0.017, `4` = 0.00899999999999999, `5` = -0.013, `6` = -0.016, `7` = 0.00850000000000001, `8` = -0.00349999999999999),c(`0` = -0.163066420088606, `1` = 0.104655621282355, `2` = 0.263136982196329, `3` = 0.0400352810538616, `4` = 0.149275961510849, `5` = -0.177939866831437, `6` = 0.0549087277966928, `7` = -0.413098631573814, `8` = 0.102092344653771),c(-0.002784, -0.000588, -0.001324, -0.003154, -0.000222000000000002, -0.002906, -0.003032, -0.000762999999999996, -0.001627, -0.000588, 0.001284, 0.000331999999999999, -0.001228, 0.001596, -0.000692, -0.001124, 0.001784, 0.000236000000000002, -0.001324, 0.000331999999999999, -0.000364, -0.001744, 0.000607999999999999, -0.001416, -0.001652, 0.000482000000000002, -0.000522, -0.003154, -0.001228, -0.001744, -0.003349, -0.000907000000000002, -0.003261, -0.003242, -0.0016405, -0.0020745, -0.000222000000000002, 
0.001596, 0.000607999999999999, -0.000907000000000002, 0.001899, -0.000323, -0.000806000000000001, 0.0022085, 0.0005465, -0.002906, -0.000692, -0.001416, -0.003261, -0.000323, -0.003029, -0.003138, -0.000904499999999999, -0.0017305, -0.003032, -0.001124, -0.001652, -0.003242, -0.000806000000000001, -0.003138, -0.003136, -0.001499, -0.001971, -0.000762999999999996, 0.001784, 0.000482000000000002, -0.0016405, 0.0022085, -0.000904499999999999, -0.001499, 0.00247775, 0.000354750000000001, -0.001627, 
0.000236000000000002, -0.000522, -0.0020745, 0.0005465, -0.0017305, -0.001971, 0.000354750000000001, -0.000712249999999998),c(-0.062465269780005, 0.010640629635968, 0.0571778959133038, -0.00374368693335557, 0.0228249462053096, -0.0665267086364483, 0.000317751923085502, -0.137263327480657, 0.0115713490641936, 0.010640629635974, 0.0120714376161232, 0.0108253096028915, 0.00963296961943203, 0.0123099056128094, 0.010561140303742, 0.00971245895166192, 0.013490587657482, 0.011011182282238, 0.0571778959132981, 0.0108253096028859, -0.0218764146040578, 0.0167507406546241, 0.00309987855115325, 0.0597530395972087, 0.014175596970711, 
0.110993197749574, 0.00863773776093218, -0.00374368693335831, 0.00963296961943398, 0.0167507406546197, 0.00560352686063191, 0.0118624123782275, -0.00448683451961848, 0.00634667444689971, -0.0146350648655398, 0.00910454341256427, 0.0228249462053065, 0.0123099056128169, 0.00309987855115197, 0.0118624123782256, 0.0105573988473949, 0.0234091151271122, 0.011278243456425, 0.0386162401805036, 0.0109178211519117, -0.0665267086364517, 0.0105611403037443, 0.0597530395972091, -0.00448683451961851, 0.023409115127112, 
-0.0708093669109084, -0.000204176245166224, -0.145638544988329, 0.0116024694409727, 0.000317751923088021, 0.00971245895166072, 0.0141755969707104, 0.00634667444689876, 0.0112782434564246, -0.000204176245167484, 0.00686860261515412, -0.0062598473578667, 0.00907342303578864, -0.137263327480653, 0.0134905876574813, 0.110993197749574, -0.0146350648655424, 0.0386162401805029, -0.145638544988329, -0.00625984735786624, -0.294580068880301, 0.0161781964113197, 0.0115713490641964, 0.0110111822822371, 0.00863773776093148, 
0.00910454341256474, 0.0109178211519103, 0.0116024694409726, 0.00907342303578842, 0.0161781964113192, 0.00999562209384974)
"63",9,1000,1,c(0.11, 0.11, 0.09, 0.09, 0.11, 0.11, 0.09, 0.15, 0.1),c(0.0121, 0.0121, 0.0099, 0.0099, 0.0121, 0.0121, 0.0099, 0.0165, 0.011, 0.0121, 0.0121, 0.0099, 0.0099, 0.0121, 0.0121, 0.0099, 0.0165, 0.011, 0.0099, 0.0099, 0.0081, 0.0081, 0.0099, 0.0099, 0.0081, 0.0135, 0.009, 0.0099, 0.0099, 0.0081, 0.0081, 0.0099, 0.0099, 0.0081, 0.0135, 0.009, 0.0121, 0.0121, 0.0099, 0.0099, 0.0121, 0.0121, 0.0099, 0.0165, 0.011, 0.0121, 0.0121, 0.0099, 0.0099, 0.0121, 0.0121, 0.0099, 0.0165, 0.011, 0.0099, 0.0099, 0.0081, 0.0081, 0.0099, 0.0099, 0.0081, 0.0135, 0.009, 0.0165, 
0.0165, 0.0135, 0.0135, 0.0165, 0.0165, 0.0135, 0.0225, 0.015, 0.011, 0.011, 0.009, 0.009, 0.011, 0.011, 0.009, 0.015, 0.01),c(`0` = -0.00600000000000001, `1` = 0.00600000000000001, `2` = -0.01, `3` = -0.00850000000000001, `4` = 0.011, `5` = -0.017, `6` = -0.016, `7` = 0.005, `8` = -0.00449999999999999),c(`0` = -0.0316069751022504, `1` = 0.0432465092396369, `2` = 0.0481976706869326, `3` = 0.0575543562296685, `4` = 0.0744354610487565, `5` = -0.100222669082314, `6` = 0.010770928515989, `7` = -0.172502895595145, `8` = 0.0301276140587249),c(-0.001356, 3.59999999999996e-05, -0.0017, -0.001526, 0.000615999999999998, -0.002632, -0.002396, -0.000319999999999997, -0.001122, 3.59999999999996e-05, 0.001284, -5e-04, -0.000344000000000001, 0.001804, -0.001108, -0.001124, 0.00142, 0.000132000000000002, -0.0017, -5e-04, -0.0019, -0.00175, -1.73472347597681e-18, -0.0028, -0.0025, -0.000999999999999999, -0.00145, -0.001526, -0.000344000000000001, -0.00175, -0.00160225, 0.000148499999999998, -0.0026095, -0.002341, -0.0007825, -0.00129325, 0.000615999999999998, 
0.001804, -1.73472347597681e-18, 0.000148499999999998, 0.002299, -0.000473000000000001, -0.000594000000000001, 0.002145, 0.000654500000000001, -0.002632, -0.001108, -0.0028, -0.0026095, -0.000473000000000001, -0.004029, -0.003562, -0.001915, -0.0022715, -0.002396, -0.001124, -0.0025, -0.002341, -0.000594000000000001, -0.003562, -0.003136, -0.00187, -0.002077, -0.000319999999999997, 0.00142, -0.000999999999999999, -0.0007825, 0.002145, -0.001915, -0.00187, 0.001475, -0.000152499999999998, -0.001122, 
0.000132000000000002, -0.00145, -0.00129325, 0.000654500000000001, -0.0022715, -0.002077, -0.000152499999999998, -0.000920249999999997),c(-0.00795253539760822, 0.00264724009590924, 0.0039804985937476, 0.00530547053043886, 0.00706381321820782, -0.0176689962666682, -0.00131938915301047, -0.0291686595069454, 0.00110558278367891, 0.00264724009590884, 0.00764397147130628, 0.00710954859643846, 0.00773414001836294, 0.00972594287772229, -0.00193309699820521, 0.00461118290873998, -0.00502819406130081, 0.00633577433066466, 0.00398049859374813, 0.00710954859643782, 0.00635256526400201, 0.00674369651433787, 0.00841331943089153, 0.00111220275794912, 
0.00478804026265695, 1.8627753914013e-05, 0.00607917151299292, 0.00530547053043916, 0.00773414001836313, 0.00674369651433779, 0.00704728020032813, 0.0087460856383323, 0.00307919016650668, 0.00552936177037542, 0.00303618593461965, 0.0067329454563663, 0.00706381321820751, 0.00972594287772219, 0.00841331943089187, 0.00874608563833208, 0.0108351635691857, 0.00462352769698817, 0.00708225460113612, 0.00503033320771755, 0.00851502080857521, -0.0176689962666677, -0.0019330969982051, 0.00111220275794933, 
0.00307919016650661, 0.00462352769698788, -0.0320935705960918, -0.00675574687628195, -0.0512974194987858, -0.00368875946772432, -0.0013193891530105, 0.00461118290873964, 0.00478804026265693, 0.00552936177037546, 0.00708225460113614, -0.00675574687628219, 0.00182275423178131, -0.0120516049689082, 0.00346407573950025, -0.0291686595069454, -0.0050281940613005, 1.86277539141865e-05, 0.00303618593461929, 0.0050303332077175, -0.0512974194987858, -0.0120516049689084, -0.0815081176672526, -0.00753404678820258, 
0.00110558278367895, 0.00633577433066469, 0.00607917151299301, 0.00673294545636628, 0.00851502080857516, -0.00368875946772435, 0.00346407573950028, -0.00753404678820269, 0.00511784968287354)
"64",9,1000,3,c(0.11, 0.11, 0.09, 0.09, 0.11, 0.11, 0.09, 0.15, 0.1),c(0.0121, 0.0121, 0.0099, 0.0099, 0.0121, 0.0121, 0.0099, 0.0165, 0.011, 0.0121, 0.0121, 0.0099, 0.0099, 0.0121, 0.0121, 0.0099, 0.0165, 0.011, 0.0099, 0.0099, 0.0081, 0.0081, 0.0099, 0.0099, 0.0081, 0.0135, 0.009, 0.0099, 0.0099, 0.0081, 0.0081, 0.0099, 0.0099, 0.0081, 0.0135, 0.009, 0.0121, 0.0121, 0.0099, 0.0099, 0.0121, 0.0121, 0.0099, 0.0165, 0.011, 0.0121, 0.0121, 0.0099, 0.0099, 0.0121, 0.0121, 0.0099, 0.0165, 0.011, 0.0099, 0.0099, 0.0081, 0.0081, 0.0099, 0.0099, 0.0081, 0.0135, 0.009, 0.0165, 
0.0165, 0.0135, 0.0135, 0.0165, 0.0165, 0.0135, 0.0225, 0.015, 0.011, 0.011, 0.009, 0.009, 0.011, 0.011, 0.009, 0.015, 0.01),c(`0` = -0.00849999999999999, `1` = 0.003, `2` = -0.0045, `3` = -0.00850000000000001, `4` = 0.014, `5` = -0.017, `6` = -0.0175, `7` = 0.001, `8` = -0.00199999999999999),c(`0` = -0.0119843138166685, `1` = 0.00493864077017647, `2` = 0.00333315662544276, `3` = -0.00255308844824248, `4` = 0.0211258147228108, `5` = -0.0244925845982496, `6` = -0.0157971398640342, `7` = -0.0168669325035183, `8` = 0.00229644711228301),c(-0.00194225, -0.0005795, -0.00129825, -0.00177225, 0.000724000000000001, -0.0029495, -0.00283875, -0.0011565, -0.001087, -0.0005795, 0.000651000000000001, -0.000211500000000002, -0.000639500000000001, 0.001828, -0.001489, -0.0016025, 0.000557000000000002, 8.60000000000027e-05, -0.00129825, -0.000211500000000002, -0.000830250000000001, -0.00120825, 0.000827999999999999, -0.0021015, -0.00205875, -0.000580499999999999, -0.000639000000000001, -0.00177225, -0.000639500000000001, -0.00120825, -0.00160225, 
0.000443999999999998, -0.0026095, -0.00248875, -0.0011765, -0.001047, 0.000724000000000001, 0.001828, 0.000827999999999999, 0.000443999999999998, 0.002884, -9.20000000000001e-05, -0.00042, 0.002196, 0.001208, -0.0029495, -0.001489, -0.0021015, -0.0026095, -9.20000000000001e-05, -0.004029, -0.0037525, -0.002423, -0.001954, -0.00283875, -0.0016025, -0.00205875, -0.00248875, -0.00042, -0.0037525, -0.00345625, -0.0025175, -0.001965, -0.0011565, 0.000557000000000002, -0.000580499999999999, -0.0011765, 
0.002196, -0.002423, -0.0025175, 0.000299000000000001, -0.000197999999999999, -0.001087, 8.60000000000027e-05, -0.000639000000000001, -0.001047, 0.001208, -0.001954, -0.001965, -0.000197999999999999, -0.000403999999999996),c(-0.00278017281732353, -0.000715837814296497, -0.000671995419702016, -0.00139002498597222, 0.00125874349294665, -0.00430598564564772, -0.00300559151008028, -0.003855148260134, -0.000918300856458732, -0.000715837814296504, 0.00106211079678207, 0.000794663634910802, 0.000176246726709526, 0.00276275729433538, -0.00202997374422419, -0.00121519131674315, -0.00103126673933087, 0.000735131932033506, -0.000671995419702009, 0.000794663634910805, 0.000588858259490032, 7.87159796246644e-05, 0.00219755490454042, 
-0.0017560477644159, -0.00106910415007235, -0.000961830303675268, 0.000532341484742467, -0.00139002498597222, 0.000176246726709538, 7.87159796246592e-05, -0.000466074181308162, 0.00167441966927481, -0.00254770407795455, -0.00169185204340701, -0.00194404996308502, -4.27655721243966e-05, 0.00125874349294663, 0.00276275729433537, 0.00219755490454043, 0.00167441966927481, 0.00420137919131588, 0.000147081118007123, 0.000497365389927134, 0.00166983732404608, 0.00231667633841738, -0.00430598564564772, -0.00202997374422418, 
-0.00175604776441591, -0.00254770407795454, 0.000147081118007122, -0.00598825531191732, -0.00432893078341645, -0.00594236503637984, -0.00214040335230083, -0.00300559151008029, -0.00121519131674317, -0.00106910415007236, -0.00169185204340702, 0.000497365389927132, -0.00432893078341646, -0.00309303480341001, -0.00415404419675709, -0.00133675645007485, -0.00385514826013401, -0.00103126673933087, -0.000961830303675254, -0.001944049963085, 0.00166983732404609, -0.00594236503637983, -0.00415404419675709, 
-0.00534457316313371, -0.00130349216506859, -0.000918300856458739, 0.000735131932033497, 0.00053234148474246, -4.27655721244036e-05, 0.00231667633841738, -0.00214040335230084, -0.00133675645007486, -0.00130349216506859, 0.000454015753117085)
"65",9,1000,5,c(0.11, 0.11, 0.09, 0.09, 0.11, 0.11, 0.09, 0.15, 0.1),c(0.0121, 0.0121, 0.0099, 0.0099, 0.0121, 0.0121, 0.0099, 0.0165, 0.011, 0.0121, 0.0121, 0.0099, 0.0099, 0.0121, 0.0121, 0.0099, 0.0165, 0.011, 0.0099, 0.0099, 0.0081, 0.0081, 0.0099, 0.0099, 0.0081, 0.0135, 0.009, 0.0099, 0.0099, 0.0081, 0.0081, 0.0099, 0.0099, 0.0081, 0.0135, 0.009, 0.0121, 0.0121, 0.0099, 0.0099, 0.0121, 0.0121, 0.0099, 0.0165, 0.011, 0.0121, 0.0121, 0.0099, 0.0099, 0.0121, 0.0121, 0.0099, 0.0165, 0.011, 0.0099, 0.0099, 0.0081, 0.0081, 0.0099, 0.0099, 0.0081, 0.0135, 0.009, 0.0165, 
0.0165, 0.0135, 0.0135, 0.0165, 0.0165, 0.0135, 0.0225, 0.015, 0.011, 0.011, 0.009, 0.009, 0.011, 0.011, 0.009, 0.015, 0.01),c(`0` = -0.00799999999999999, `1` = 0.0035, `2` = -0.005, `3` = -0.0115, `4` = 0.0145, `5` = -0.019, `6` = -0.014, `7` = 0.004, `8` = -0.00449999999999999),c(`0` = -0.00842058660419086, `1` = 0.00378152167861162, `2` = -0.00401637003858589, `3` = -0.0109132138506047, `4` = 0.0154531035143357, `5` = -0.020092168439915, `6` = -0.0135658460859965, `7` = 0.00186993235942048, `8` = -0.00409637253307489),c(-0.001824, -0.000466999999999999, -0.00131, -0.002077, 0.000831, -0.003122, -0.002372, -0.000727999999999996, -0.001331, -0.000466999999999999, 0.00075775, -0.000217500000000001, -0.000909750000000001, 0.00192925, -0.0016385, -0.001176, 0.000951000000000002, -0.000129249999999997, -0.00131, -0.000217500000000001, -0.000925, -0.0015425, 0.000827499999999998, -0.002355, -0.00178, -0.000369999999999999, -0.000927500000000001, -0.002077, -0.000909750000000001, -0.0015425, -0.00220225, 0.000206749999999999, 
-0.0031935, -0.002456, -0.001319, -0.00160675, 0.000831, 0.00192925, 0.000827499999999998, 0.000206749999999999, 0.00297975, -0.000219500000000001, -3.20000000000008e-05, 0.002557, 0.00102025, -0.003122, -0.0016385, -0.002355, -0.0031935, -0.000219500000000001, -0.004541, -0.003516, -0.002334, -0.0024805, -0.002372, -0.001176, -0.00178, -0.002456, -3.20000000000008e-05, -0.003516, -0.002716, -0.001684, -0.001868, -0.000727999999999996, 0.000951000000000002, -0.000369999999999999, -0.001319, 0.002557, 
-0.002334, -0.001684, 0.001184, -0.000256999999999999, -0.001331, -0.000129249999999997, -0.000927500000000001, -0.00160675, 0.00102025, -0.0024805, -0.001868, -0.000256999999999999, -0.000920249999999997),c(-0.00192343533168075, -0.000478454511023404, -0.00123347369036607, -0.0020502019803028, 0.000903701056561911, -0.00330559089926596, -0.00236432824566307, -0.00104164950371587, -0.00132715349873513, -0.000478454511023402, 0.000817634863088742, -8.62757627992199e-05, -0.00081884801773207, 0.00205737252528291, -0.00171819217321753, -0.00110060657732168, 0.000765849621573302, -5.69582892395882e-05, -0.00123347369036606, -8.62757627992147e-05, -0.000739077835232332, -0.00138749405516141, 0.00101104399400391, 
-0.00233079344716914, -0.00163688490898031, -0.000426651253137485, -0.000786763079744067, -0.00205020198030279, -0.000818848017732068, -0.00138749405516141, -0.00208347672965791, 0.000358968816031176, -0.00322801881406605, -0.00235116237369499, -0.00144828119351835, -0.00150469950250241, 0.000903701056561918, 0.00205737252528292, 0.00101104399400391, 0.00035896881603118, 0.00316088436492908, -0.000199810783084243, 0.000108170670657028, 0.00249476182837168, 0.00115801104158221, -0.00330559089926596, 
-0.00171819217321752, -0.00233079344716913, -0.00322801881406604, -0.000199810783084243, -0.00482397228939922, -0.00357310549364178, -0.00277056171051427, -0.00254212282955693, -0.00236432824566306, -0.00110060657732167, -0.0016368849089803, -0.00235116237369499, 0.000108170670657033, -0.00357310549364178, -0.00262588447550833, -0.00184121578597252, -0.001780828895871, -0.00104164950371588, 0.000765849621573309, -0.000426651253137464, -0.00144828119351835, 0.00249476182837168, -0.00277056171051427, 
-0.00184121578597252, 0.000557483060797347, -0.000419802704463346, -0.00132715349873512, -5.6958289239576e-05, -0.000786763079744056, -0.0015046995025024, 0.00115801104158222, -0.00254212282955692, -0.00178082889587099, -0.000419802704463342, -0.000836054774544705)
"66",9,10000,0.05,c(0.11, 0.11, 0.09, 0.09, 0.11, 0.11, 0.09, 0.15, 0.1),c(0.0121, 0.0121, 0.0099, 0.0099, 0.0121, 0.0121, 0.0099, 0.0165, 0.011, 0.0121, 0.0121, 0.0099, 0.0099, 0.0121, 0.0121, 0.0099, 0.0165, 0.011, 0.0099, 0.0099, 0.0081, 0.0081, 0.0099, 0.0099, 0.0081, 0.0135, 0.009, 0.0099, 0.0099, 0.0081, 0.0081, 0.0099, 0.0099, 0.0081, 0.0135, 0.009, 0.0121, 0.0121, 0.0099, 0.0099, 0.0121, 0.0121, 0.0099, 0.0165, 0.011, 0.0121, 0.0121, 0.0099, 0.0099, 0.0121, 0.0121, 0.0099, 0.0165, 0.011, 0.0099, 0.0099, 0.0081, 0.0081, 0.0099, 0.0099, 0.0081, 0.0135, 0.009, 0.0165, 
